;1001
;Printer name: Alfawise U20
;TIME:16755
;Print time: 4h:39m:15s
;Extruder 1 material used: 4981mm
;Extruder 1 material name: 
;Extruder 1 filament diameter: 2.85mm
;Extruder 1 nozzle diameter: 0.4mm
;Extruder 1 offset x: 0mm
;Extruder 1 offset y: 0mm
;Extruder 1 offset z: 0mm
;Extruder 1 max temp: 250
;Bed temp: 85
;Layer count: 33
;Width: 300mm
;Depth: 300mm
;Height: 400mm
;Center x: 150mm
;Center y: 150mm
;Center z: 0mm
;Count of bodies: 1
;Fusion version: 2.0.15050
G21
G28
;--------------------------------
;Selected Profile: ABS 2.85mm
;--------------------------------
;Selected Printer: Alfawise, U20
;--------------------------------
T0
M140 S85
M104 S250 T0
M190 S85
M109 S250 T0
G90
M82
G92 E0
G1 F7200
G0 Z10
G0 X10 Y10
G92 E0
;--------------------------------
;Part 1
;Layer : 1 of 33
M107
;rapid-leaky
G0 X20 Y20.75 Z0.2
G1 F1500 E7
;bead-prime
G1 X80 F480 E9.822
G1 F1500 E2.822
G0 X79.2 F2400
G0 X80 F2400
;rapid-dry
G0 X49.411 Y81.232 F7200
G1 F1500 E9.822
;bead-skirt/brim
G1 X240.611 F1200 E12.219
G1 Y232.346 E14.114
G1 X49.411 E16.512
G1 Y81.232 E18.407
G1 F1500 E11.407
G0 X50.211 F2400
G0 X49.411 F2400
;rapid-leaky
G0 X49.811 Y81.632 F7200
G1 F1500 E18.407
;bead-skirt/brim
G1 X240.211 F1200 E20.795
G1 Y231.946 E22.68
G1 X49.811 E25.067
G1 Y81.632 E26.952
G1 F1500 E19.952
G0 X50.611 F2400
G0 X49.811 F2400
;rapid-dry
G0 X60.697 Y92.246 F7200
G1 F1500 E26.952
;bead-perimeter_outer
G1 X60.877 Y91.997 F900 E26.956
G1 X61.021 Y91.726 E26.96
G1 X61.128 Y91.43 E26.964
G1 X61.19 Y91.138 E26.968
G1 X61.212 Y90.832 E26.972
G1 X61.19 Y90.525 E26.976
G1 X61.126 Y90.225 E26.979
G1 X61.021 Y89.937 E26.983
G1 X60.877 Y89.666 E26.987
G1 X60.697 Y89.417 E26.991
G1 X60.483 Y89.196 E26.995
G1 X60.241 Y89.007 E26.999
G1 X59.976 Y88.854 E27.002
G1 X59.682 Y88.736 E27.006
G1 X59.393 Y88.665 E27.01
G1 X59.088 Y88.633 E27.014
G1 X58.773 Y88.645 E27.018
G1 X58.479 Y88.696 E27.022
G1 X58.187 Y88.791 E27.026
G1 X57.911 Y88.927 E27.029
G1 X57.657 Y89.098 E27.033
G1 X57.428 Y89.303 E27.037
G1 X57.231 Y89.538 E27.041
G1 X57.068 Y89.799 E27.045
G1 X56.943 Y90.08 E27.049
G1 X56.859 Y90.375 E27.053
G1 X56.816 Y90.678 E27.056
G1 X56.817 Y90.993 E27.06
G1 X56.859 Y91.288 E27.064
G1 X56.943 Y91.585 E27.068
G1 X57.072 Y91.872 E27.072
G1 X57.231 Y92.125 E27.076
G1 X57.428 Y92.36 E27.079
G1 X57.657 Y92.566 E27.083
G1 X57.918 Y92.742 E27.087
G1 X58.187 Y92.872 E27.091
G1 X58.478 Y92.966 E27.095
G1 X58.781 Y93.02 E27.099
G1 X59.088 Y93.03 E27.103
G1 X59.393 Y92.998 E27.106
G1 X59.691 Y92.925 E27.11
G1 X59.976 Y92.809 E27.114
G1 X60.241 Y92.656 E27.118
G1 X60.483 Y92.467 E27.122
G1 X60.697 Y92.246 E27.126
G1 F1500 E20.126
G0 X60.877 Y91.997 F2400
G0 X61.021 Y91.726 F2400
G0 X61.084 Y91.551 F2400
G0 X61.021 Y91.726 F2400
G0 X60.877 Y91.997 F2400
G0 X60.697 Y92.246 F2400
;rapid-leaky
G0 X60.973 Y92.478 F7200
G1 F1500 E27.126
;bead-perimeter_inner
G1 X61.183 Y92.188 F1200 E27.13
G1 X61.351 Y91.872 E27.135
G1 X61.475 Y91.528 E27.139
G1 X61.547 Y91.188 E27.144
G1 X61.572 Y90.832 E27.148
G1 X61.547 Y90.474 E27.153
G1 X61.473 Y90.126 E27.157
G1 X61.351 Y89.79 E27.162
G1 X61.183 Y89.475 E27.166
G1 X60.973 Y89.185 E27.17
G1 X60.725 Y88.928 E27.175
G1 X60.443 Y88.708 E27.179
G1 X60.133 Y88.529 E27.184
G1 X59.793 Y88.393 E27.189
G1 X59.455 Y88.309 E27.193
G1 X59.1 Y88.272 E27.197
G1 X58.734 Y88.286 E27.202
G1 X58.391 Y88.346 E27.206
G1 X58.051 Y88.457 E27.211
G1 X57.73 Y88.614 E27.215
G1 X57.435 Y88.813 E27.22
G1 X57.168 Y89.052 E27.224
G1 X56.939 Y89.326 E27.229
G1 X56.75 Y89.629 E27.233
G1 X56.603 Y89.956 E27.238
G1 X56.506 Y90.3 E27.242
G1 X56.456 Y90.654 E27.247
G1 X56.457 Y91.019 E27.251
G1 X56.506 Y91.363 E27.256
G1 X56.603 Y91.709 E27.26
G1 X56.754 Y92.042 E27.265
G1 X56.939 Y92.337 E27.269
G1 X57.168 Y92.611 E27.274
G1 X57.435 Y92.851 E27.278
G1 X57.738 Y93.055 E27.283
G1 X58.053 Y93.207 E27.287
G1 X58.391 Y93.317 E27.291
G1 X58.744 Y93.379 E27.296
G1 X59.101 Y93.391 E27.3
G1 X59.455 Y93.354 E27.305
G1 X59.802 Y93.268 E27.309
G1 X60.134 Y93.133 E27.314
G1 X60.443 Y92.955 E27.318
G1 X60.725 Y92.735 E27.323
G1 X60.973 Y92.478 E27.327
G1 F1500 E20.327
G0 X61.183 Y92.188 F2400
G0 X61.351 Y91.872 F2400
G0 X61.38 Y91.793 F2400
G0 X61.351 Y91.872 F2400
G0 X61.183 Y92.188 F2400
G0 X60.973 Y92.478 F2400
;rapid-dry
G0 X61.212 Y222.746 F7200
G1 F1500 E27.327
;bead-perimeter_outer
G1 X61.189 Y222.44 F900 E27.331
G1 X61.126 Y222.14 E27.335
G1 X61.021 Y221.851 E27.339
G1 X60.877 Y221.58 E27.343
G1 X60.696 Y221.331 E27.347
G1 X60.483 Y221.111 E27.35
G1 X60.241 Y220.922 E27.354
G1 X59.976 Y220.768 E27.358
G1 X59.691 Y220.653 E27.362
G1 X59.384 Y220.577 E27.366
G1 X59.079 Y220.547 E27.37
G1 X58.781 Y220.558 E27.374
G1 X58.478 Y220.61 E27.377
G1 X58.187 Y220.706 E27.381
G1 X57.911 Y220.84 E27.385
G1 X57.657 Y221.012 E27.389
G1 X57.428 Y221.218 E27.393
G1 X57.231 Y221.452 E27.397
G1 X57.068 Y221.713 E27.4
G1 X56.943 Y221.994 E27.404
G1 X56.859 Y222.289 E27.408
G1 X56.816 Y222.592 E27.412
G1 X56.817 Y222.907 E27.416
G1 X56.859 Y223.203 E27.42
G1 X56.943 Y223.499 E27.424
G1 X57.072 Y223.787 E27.428
G1 X57.231 Y224.039 E27.431
G1 X57.428 Y224.274 E27.435
G1 X57.657 Y224.48 E27.439
G1 X57.918 Y224.656 E27.443
G1 X58.187 Y224.786 E27.447
G1 X58.478 Y224.88 E27.451
G1 X58.781 Y224.934 E27.454
G1 X59.088 Y224.945 E27.458
G1 X59.393 Y224.912 E27.462
G1 X59.691 Y224.839 E27.466
G1 X59.976 Y224.723 E27.47
G1 X60.241 Y224.57 E27.474
G1 X60.483 Y224.381 E27.477
G1 X60.697 Y224.16 E27.481
G1 X60.881 Y223.905 E27.485
G1 X61.021 Y223.64 E27.489
G1 X61.126 Y223.352 E27.493
G1 X61.189 Y223.052 E27.497
G1 X61.212 Y222.746 E27.501
G1 F1500 E20.501
G0 X61.189 Y222.44 F2400
G0 X61.126 Y222.14 F2400
G0 X61.062 Y221.965 F2400
G0 X61.126 Y222.14 F2400
G0 X61.189 Y222.44 F2400
G0 X61.212 Y222.746 F2400
;rapid-leaky
G0 X61.572 F7200
G1 F1500 E27.501
;bead-perimeter_inner
G1 X61.547 Y222.389 F1200 E27.505
G1 X61.473 Y222.041 E27.51
G1 X61.351 Y221.704 E27.514
G1 X61.183 Y221.389 E27.518
G1 X60.973 Y221.099 E27.523
G1 X60.724 Y220.843 E27.527
G1 X60.444 Y220.623 E27.532
G1 X60.134 Y220.443 E27.536
G1 X59.801 Y220.31 E27.541
G1 X59.446 Y220.222 E27.545
G1 X59.091 Y220.186 E27.55
G1 X58.743 Y220.199 E27.554
G1 X58.391 Y220.26 E27.559
G1 X58.051 Y220.372 E27.563
G1 X57.73 Y220.528 E27.568
G1 X57.434 Y220.728 E27.572
G1 X57.168 Y220.967 E27.577
G1 X56.939 Y221.24 E27.581
G1 X56.75 Y221.543 E27.586
G1 X56.603 Y221.87 E27.59
G1 X56.506 Y222.214 E27.595
G1 X56.456 Y222.568 E27.599
G1 X56.457 Y222.933 E27.604
G1 X56.506 Y223.278 E27.608
G1 X56.603 Y223.622 E27.613
G1 X56.754 Y223.957 E27.617
G1 X56.939 Y224.251 E27.622
G1 X57.168 Y224.525 E27.626
G1 X57.435 Y224.765 E27.631
G1 X57.738 Y224.969 E27.635
G1 X58.053 Y225.121 E27.639
G1 X58.391 Y225.231 E27.644
G1 X58.743 Y225.293 E27.648
G1 X59.101 Y225.306 E27.653
G1 X59.456 Y225.268 E27.657
G1 X59.802 Y225.182 E27.662
G1 X60.134 Y225.047 E27.666
G1 X60.443 Y224.869 E27.671
G1 X60.725 Y224.649 E27.675
G1 X60.973 Y224.391 E27.68
G1 X61.188 Y224.096 E27.684
G1 X61.351 Y223.787 E27.689
G1 X61.473 Y223.451 E27.693
G1 X61.547 Y223.103 E27.698
G1 X61.572 Y222.746 E27.702
G1 F1500 E20.702
G0 X61.547 Y222.389 F2400
G0 X61.473 Y222.041 F2400
G0 X61.443 Y221.96 F2400
G0 X61.473 Y222.041 F2400
G0 X61.547 Y222.389 F2400
G0 X61.572 Y222.746 F2400
;rapid-dry
G0 X149.881 Y220.101 F7200
G1 F1500 E27.702
;bead-perimeter_outer
G1 Y203.457 F900 E27.911
G1 X141.235 E28.019
G1 Y148.964 E28.703
G1 X100.751 E29.21
G1 Y203.457 E29.894
G1 X74.952 E30.217
G1 Y107.308 E31.423
G1 X66.811 E31.525
G1 Y220.101 E32.94
G1 X149.881 E33.981
G1 F1500 E26.981
G0 Y219.301 F2400
G0 Y220.101 F2400
;rapid-leaky
G0 X150.241 Y220.461 F7200
G1 F1500 E33.981
;bead-perimeter_inner
G1 Y203.097 F1200 E34.199
G1 X141.595 E34.307
G1 Y148.604 E34.991
G1 X100.391 E35.508
G1 Y203.097 E36.191
G1 X75.312 E36.505
G1 Y106.948 E37.711
G1 X66.451 E37.822
G1 Y220.461 E39.246
G1 X150.241 E40.297
G1 F1500 E33.297
G0 Y219.661 F2400
G0 Y220.461 F2400
;rapid-dry
G0 X174.77 Y226.446 F7200
G1 F1500 E40.297
;bead-perimeter_outer
G1 Y216.632 F900 E40.42
G1 X154.811 E40.67
G1 Y226.446 E40.793
G1 X174.77 E41.043
G1 F1500 E34.043
G0 Y225.646 F2400
G0 Y226.446 F2400
;rapid-dry
G0 X219.046 Y212.241 F7200
G1 F1500 E41.043
;bead-perimeter_outer
G1 Y117.001 F900 E42.238
G1 X180.919 E42.716
G1 Y212.241 E43.91
G1 X219.046 E44.388
G1 F1500 E37.388
G0 Y211.441 F2400
G0 Y212.241 F2400
;rapid-leaky
G0 X219.406 Y212.601 F7200
G1 F1500 E44.388
;bead-perimeter_inner
G1 Y116.641 F1200 E45.592
G1 X180.559 E46.079
G1 Y212.601 E47.282
G1 X219.406 E47.769
G1 F1500 E40.769
G0 Y211.801 F2400
G0 Y212.601 F2400
;rapid-dry
G0 X228.859 Y223.203 F7200
G1 F1500 E47.769
;bead-perimeter_outer
G1 X228.943 Y223.499 F900 E47.773
G1 X229.072 Y223.787 E47.777
G1 X229.231 Y224.039 E47.781
G1 X229.428 Y224.274 E47.785
G1 X229.657 Y224.48 E47.789
G1 X229.918 Y224.656 E47.792
G1 X230.187 Y224.786 E47.796
G1 X230.478 Y224.88 E47.8
G1 X230.781 Y224.934 E47.804
G1 X231.088 Y224.945 E47.808
G1 X231.393 Y224.912 E47.812
G1 X231.691 Y224.839 E47.815
G1 X231.976 Y224.723 E47.819
G1 X232.241 Y224.57 E47.823
G1 X232.483 Y224.381 E47.827
G1 X232.697 Y224.16 E47.831
G1 X232.881 Y223.905 E47.835
G1 X233.021 Y223.64 E47.839
G1 X233.126 Y223.352 E47.842
G1 X233.189 Y223.052 E47.846
G1 X233.212 Y222.746 E47.85
G1 X233.189 Y222.44 E47.854
G1 X233.126 Y222.14 E47.858
G1 X233.021 Y221.851 E47.862
G1 X232.877 Y221.58 E47.866
G1 X232.697 Y221.331 E47.869
G1 X232.483 Y221.111 E47.873
G1 X232.241 Y220.922 E47.877
G1 X231.976 Y220.768 E47.881
G1 X231.691 Y220.653 E47.885
G1 X231.384 Y220.577 E47.889
G1 X231.079 Y220.547 E47.893
G1 X230.781 Y220.558 E47.896
G1 X230.478 Y220.61 E47.9
G1 X230.187 Y220.706 E47.904
G1 X229.911 Y220.84 E47.908
G1 X229.657 Y221.012 E47.912
G1 X229.428 Y221.218 E47.916
G1 X229.231 Y221.452 E47.919
G1 X229.068 Y221.713 E47.923
G1 X228.943 Y221.994 E47.927
G1 X228.859 Y222.289 E47.931
G1 X228.816 Y222.592 E47.935
G1 X228.817 Y222.907 E47.939
G1 X228.859 Y223.203 E47.943
G1 F1500 E40.943
G0 X228.943 Y223.499 F2400
G0 X229.072 Y223.787 F2400
G0 X229.167 Y223.937 F2400
G0 X229.072 Y223.787 F2400
G0 X228.943 Y223.499 F2400
G0 X228.859 Y223.203 F2400
;rapid-leaky
G0 X228.506 Y223.278 F7200
G1 F1500 E47.943
;bead-perimeter_inner
G1 X228.603 Y223.622 F1200 E47.947
G1 X228.754 Y223.957 E47.952
G1 X228.939 Y224.251 E47.956
G1 X229.168 Y224.525 E47.96
G1 X229.435 Y224.765 E47.965
G1 X229.738 Y224.969 E47.97
G1 X230.053 Y225.121 E47.974
G1 X230.391 Y225.231 E47.978
G1 X230.743 Y225.293 E47.983
G1 X231.101 Y225.306 E47.987
G1 X231.456 Y225.268 E47.992
G1 X231.802 Y225.182 E47.996
G1 X232.134 Y225.047 E48.001
G1 X232.443 Y224.869 E48.005
G1 X232.725 Y224.649 E48.01
G1 X232.973 Y224.391 E48.014
G1 X233.188 Y224.096 E48.019
G1 X233.351 Y223.787 E48.023
G1 X233.473 Y223.451 E48.028
G1 X233.547 Y223.103 E48.032
G1 X233.572 Y222.746 E48.037
G1 X233.547 Y222.389 E48.041
G1 X233.473 Y222.041 E48.046
G1 X233.351 Y221.704 E48.05
G1 X233.183 Y221.389 E48.055
G1 X232.973 Y221.099 E48.059
G1 X232.724 Y220.843 E48.063
G1 X232.444 Y220.623 E48.068
G1 X232.134 Y220.443 E48.072
G1 X231.801 Y220.31 E48.077
G1 X231.446 Y220.222 E48.082
G1 X231.091 Y220.186 E48.086
G1 X230.743 Y220.199 E48.09
G1 X230.391 Y220.26 E48.095
G1 X230.051 Y220.372 E48.099
G1 X229.731 Y220.528 E48.104
G1 X229.434 Y220.728 E48.108
G1 X229.168 Y220.967 E48.113
G1 X228.939 Y221.24 E48.117
G1 X228.75 Y221.543 E48.122
G1 X228.603 Y221.87 E48.126
G1 X228.506 Y222.214 E48.131
G1 X228.456 Y222.568 E48.135
G1 X228.457 Y222.933 E48.14
G1 X228.506 Y223.278 E48.144
G1 F1500 E41.144
G0 X228.603 Y223.622 F2400
G0 X228.754 Y223.957 F2400
G0 X228.794 Y224.021 F2400
G0 X228.754 Y223.957 F2400
G0 X228.603 Y223.622 F2400
G0 X228.506 Y223.278 F2400
;rapid-dry
G0 X234.811 Y226.546 F7200
G1 F1500 E48.144
;bead-perimeter_outer
G1 X55.211 F900 E50.396
G1 Y87.032 E52.146
G1 X234.811 E54.398
G1 Y226.546 E56.148
G1 F1500 E49.148
G0 X234.011 F2400
G0 X234.811 F2400
;rapid-leaky
G0 X234.451 Y226.186 F7200
G1 F1500 E56.148
;bead-perimeter_inner
G1 X175.13 F1200 E56.892
G1 Y216.272 E57.016
G1 X154.451 E57.275
G1 Y226.186 E57.4
G1 X55.571 E58.64
G1 Y87.392 E60.38
G1 X234.451 E62.623
G1 Y226.186 E64.364
G1 F1500 E57.364
G0 X233.651 F2400
G0 X234.451 F2400
;rapid-dry
G0 X231.088 Y93.03 F7200
G1 F1500 E64.364
;bead-perimeter_outer
G1 X231.393 Y92.998 F900 E64.368
G1 X231.691 Y92.925 E64.372
G1 X231.976 Y92.809 E64.375
G1 X232.241 Y92.656 E64.379
G1 X232.483 Y92.467 E64.383
G1 X232.697 Y92.246 E64.387
G1 X232.877 Y91.997 E64.391
G1 X233.021 Y91.726 E64.395
G1 X233.128 Y91.43 E64.399
G1 X233.19 Y91.138 E64.402
G1 X233.212 Y90.832 E64.406
G1 X233.19 Y90.525 E64.41
G1 X233.126 Y90.225 E64.414
G1 X233.021 Y89.937 E64.418
G1 X232.877 Y89.666 E64.422
G1 X232.697 Y89.417 E64.425
G1 X232.483 Y89.196 E64.429
G1 X232.241 Y89.007 E64.433
G1 X231.976 Y88.854 E64.437
G1 X231.683 Y88.736 E64.441
G1 X231.393 Y88.665 E64.445
G1 X231.088 Y88.633 E64.449
G1 X230.773 Y88.645 E64.453
G1 X230.479 Y88.696 E64.456
G1 X230.187 Y88.791 E64.46
G1 X229.911 Y88.927 E64.464
G1 X229.657 Y89.098 E64.468
G1 X229.428 Y89.303 E64.472
G1 X229.231 Y89.538 E64.476
G1 X229.068 Y89.799 E64.479
G1 X228.943 Y90.08 E64.483
G1 X228.859 Y90.375 E64.487
G1 X228.816 Y90.678 E64.491
G1 X228.817 Y90.993 E64.495
G1 X228.859 Y91.288 E64.499
G1 X228.943 Y91.585 E64.503
G1 X229.072 Y91.872 E64.506
G1 X229.231 Y92.125 E64.51
G1 X229.428 Y92.36 E64.514
G1 X229.657 Y92.566 E64.518
G1 X229.918 Y92.742 E64.522
G1 X230.187 Y92.872 E64.526
G1 X230.478 Y92.966 E64.529
G1 X230.781 Y93.02 E64.533
G1 X231.088 Y93.03 E64.537
G1 F1500 E57.537
G0 X231.393 Y92.998 F2400
G0 X231.691 Y92.925 F2400
G0 X231.864 Y92.855 F2400
G0 X231.691 Y92.925 F2400
G0 X231.393 Y92.998 F2400
G0 X231.088 Y93.03 F2400
;rapid-leaky
G0 X231.101 Y93.391 F7200
G1 F1500 E64.537
;bead-perimeter_inner
G1 X231.455 Y93.354 F1200 E64.542
G1 X231.802 Y93.268 E64.546
G1 X232.134 Y93.133 E64.551
G1 X232.443 Y92.955 E64.555
G1 X232.725 Y92.735 E64.56
G1 X232.973 Y92.478 E64.564
G1 X233.183 Y92.188 E64.569
G1 X233.351 Y91.872 E64.573
G1 X233.475 Y91.528 E64.578
G1 X233.547 Y91.188 E64.582
G1 X233.572 Y90.832 E64.586
G1 X233.547 Y90.474 E64.591
G1 X233.473 Y90.126 E64.595
G1 X233.351 Y89.79 E64.6
G1 X233.183 Y89.475 E64.604
G1 X232.973 Y89.185 E64.609
G1 X232.725 Y88.928 E64.613
G1 X232.443 Y88.708 E64.618
G1 X232.133 Y88.529 E64.622
G1 X231.793 Y88.393 E64.627
G1 X231.455 Y88.309 E64.631
G1 X231.1 Y88.272 E64.636
G1 X230.734 Y88.286 E64.64
G1 X230.391 Y88.346 E64.645
G1 X230.051 Y88.457 E64.649
G1 X229.73 Y88.614 E64.654
G1 X229.435 Y88.813 E64.658
G1 X229.168 Y89.052 E64.663
G1 X228.939 Y89.326 E64.667
G1 X228.75 Y89.629 E64.672
G1 X228.603 Y89.956 E64.676
G1 X228.506 Y90.3 E64.681
G1 X228.456 Y90.654 E64.685
G1 X228.457 Y91.019 E64.69
G1 X228.506 Y91.363 E64.694
G1 X228.603 Y91.709 E64.698
G1 X228.754 Y92.042 E64.703
G1 X228.939 Y92.337 E64.707
G1 X229.168 Y92.611 E64.712
G1 X229.435 Y92.851 E64.716
G1 X229.738 Y93.055 E64.721
G1 X230.053 Y93.207 E64.725
G1 X230.391 Y93.317 E64.73
G1 X230.744 Y93.379 E64.734
G1 X231.101 Y93.391 E64.739
G1 F1500 E57.739
G0 X231.455 Y93.354 F2400
G0 X231.802 Y93.268 F2400
G0 X231.883 Y93.236 F2400
G0 X231.802 Y93.268 F2400
G0 X231.455 Y93.354 F2400
G0 X231.101 Y93.391 F2400
;rapid-dry
G0 X209.213 Y116.321 F7200
G1 F1500 E64.739
;bead-solid_infill
G1 X232.002 Y93.532 F900 E65.143
G1 X231.901 Y93.573 E65.144
G1 X231.51 Y93.67 E65.149
G1 X231.435 Y93.678 E65.15
G1 X231.274 Y93.695 E65.152
G1 X208.648 Y116.321 E65.554
G1 X208.082 E65.561
G1 X230.705 Y93.698 E65.962
G1 X230.313 Y93.628 E65.967
G1 X230.235 Y93.602 E65.968
G1 X207.516 Y116.321 E66.371
G1 X206.951 E66.378
G1 X229.821 Y93.45 E66.784
G1 X229.579 Y93.333 E66.787
G1 X229.456 Y93.25 E66.789
G1 X206.385 Y116.321 E67.198
G1 X205.819 E67.205
G1 X229.132 Y93.009 E67.618
G1 X228.937 Y92.834 E67.622
G1 X228.848 Y92.727 E67.624
G1 X205.254 Y116.321 E68.042
G1 X204.688 E68.049
G1 X228.604 Y92.405 E68.473
G1 X228.57 Y92.35 E68.474
G1 X228.472 Y92.194 E68.476
G1 X228.402 Y92.041 E68.478
G1 X204.122 Y116.321 E68.909
G1 X203.556 E68.916
G1 X228.248 Y91.629 E69.354
G1 X228.192 Y91.429 E69.357
G1 X228.154 Y91.158 E69.36
G1 X202.991 Y116.321 E69.806
G1 X202.425 E69.813
G1 X228.139 Y90.607 E70.269
G1 X228.192 Y90.234 E70.274
G1 X228.289 Y89.891 E70.279
G1 X201.859 Y116.321 E70.747
G1 F1500 E63.747
G0 X202.425 Y115.755 F2400
G0 X201.859 Y116.321 F2400
;rapid-dry
G0 X180.929 F7200
G1 F1500 E70.747
;bead-solid_infill
G1 X209.538 Y87.712 F900 E71.255
G1 X210.104 E71.262
G1 X181.495 Y116.321 E71.769
G1 X182.06 E71.776
G1 X210.669 Y87.712 E72.284
G1 X211.235 E72.291
G1 X182.626 Y116.321 E72.798
G1 X183.192 E72.805
G1 X211.801 Y87.712 E73.313
G1 X212.367 E73.32
G1 X183.757 Y116.321 E73.827
G1 X184.323 E73.834
G1 X212.932 Y87.712 E74.342
G1 X213.498 E74.349
G1 X184.889 Y116.321 E74.856
G1 X185.455 E74.863
G1 X214.064 Y87.712 E75.37
G1 X214.629 E75.378
G1 X186.02 Y116.321 E75.885
G1 X186.586 E75.892
G1 X215.195 Y87.712 E76.399
G1 X215.761 E76.407
G1 X187.152 Y116.321 E76.914
G1 X187.717 E76.921
G1 X216.326 Y87.712 E77.428
G1 X216.892 E77.435
G1 X188.283 Y116.321 E77.943
G1 X188.849 E77.95
G1 X217.458 Y87.712 E78.457
G1 X218.023 E78.464
G1 X189.414 Y116.321 E78.972
G1 X189.98 E78.979
G1 X218.589 Y87.712 E79.486
G1 X219.155 E79.493
G1 X190.546 Y116.321 E80.001
G1 X191.111 E80.008
G1 X219.72 Y87.712 E80.515
G1 X220.286 E80.522
G1 X191.677 Y116.321 E81.03
G1 X192.243 E81.037
G1 X220.852 Y87.712 E81.544
G1 X221.417 E81.551
G1 X192.808 Y116.321 E82.059
G1 X193.374 E82.066
G1 X221.983 Y87.712 E82.573
G1 X222.549 E82.58
G1 X193.94 Y116.321 E83.088
G1 X194.506 E83.095
G1 X223.115 Y87.712 E83.602
G1 X223.68 E83.609
G1 X195.071 Y116.321 E84.116
G1 X195.637 E84.124
G1 X224.246 Y87.712 E84.631
G1 X224.812 E84.638
G1 X196.203 Y116.321 E85.145
G1 X196.768 E85.152
G1 X225.377 Y87.712 E85.66
G1 X225.943 E85.667
G1 X197.334 Y116.321 E86.174
G1 X197.9 E86.181
G1 X226.509 Y87.712 E86.689
G1 X227.074 E86.696
G1 X198.465 Y116.321 E87.203
G1 X199.031 E87.21
G1 X227.64 Y87.712 E87.718
G1 X228.206 E87.725
G1 X199.597 Y116.321 E88.232
G1 X200.162 E88.239
G1 X228.771 Y87.712 E88.747
G1 X229.337 E88.754
G1 X200.728 Y116.321 E89.261
G1 X201.294 E89.268
G1 X229.903 Y87.712 E89.776
G1 X230.468 E89.783
G1 X230.065 Y88.116 E89.79
G1 X230.314 Y88.035 E89.793
G1 X230.7 Y87.967 E89.798
G1 X230.782 Y87.964 E89.799
G1 X231.034 Y87.712 E89.804
G1 X231.6 E89.811
G1 X231.337 Y87.975 E89.815
G1 X231.51 Y87.993 E89.817
G1 X231.81 Y88.067 E89.821
G1 X232.166 Y87.712 E89.828
G1 X232.731 E89.835
G1 X232.223 Y88.22 E89.844
G1 X232.273 Y88.24
G1 X232.587 Y88.422 E89.849
G1 X233.297 Y87.712 E89.862
G1 X233.863 E89.869
G1 X232.909 Y88.666 E89.886
G1 X232.939 Y88.69
G1 X233.191 Y88.95 E89.891
G1 X234.131 Y88.009 E89.907
G1 Y88.575 E89.914
G1 X233.432 Y89.273 E89.927
G1 X233.455 Y89.305
G1 X233.633 Y89.639 E89.932
G1 X234.131 Y89.141 E89.941
G1 Y89.706 E89.948
G1 X233.784 Y90.053 E89.954
G1 X233.864 Y90.429 E89.959
G1 X233.872 Y90.531 E89.96
G1 X234.131 Y90.272 E89.965
G1 Y90.838 E89.972
G1 X233.874 Y91.094 E89.976
G1 X233.864 Y91.233 E89.978
G1 X233.784 Y91.616 E89.983
G1 X233.708 Y91.826 E89.986
G1 X234.131 Y91.403 E89.993
G1 Y91.969 E90
G1 X209.779 Y116.321 E90.432
G1 X210.345 E90.439
G1 X234.131 Y92.535 E90.861
G1 Y93.1 E90.868
G1 X210.91 Y116.321 E91.28
G1 X211.476 E91.287
G1 X234.131 Y93.666 E91.689
G1 Y94.232 E91.696
G1 X212.042 Y116.321 E92.088
G1 X212.607 E92.095
G1 X234.131 Y94.797 E92.477
G1 Y95.363 E92.484
G1 X213.173 Y116.321 E92.856
G1 X213.739 E92.863
G1 X234.131 Y95.929 E93.224
G1 Y96.495 E93.231
G1 X214.305 Y116.321 E93.583
G1 X214.87 E93.59
G1 X234.131 Y97.06 E93.932
G1 Y97.626 E93.939
G1 X215.436 Y116.321 E94.27
G1 X216.002 E94.277
G1 X234.131 Y98.192 E94.599
G1 Y98.757 E94.606
G1 X216.567 Y116.321 E94.917
G1 X217.133 E94.925
G1 X234.131 Y99.323 E95.226
G1 Y99.889 E95.233
G1 X217.699 Y116.321 E95.525
G1 X218.264 E95.532
G1 X234.131 Y100.454 E95.813
G1 Y101.02 E95.82
G1 X218.83 Y116.321 E96.091
G1 X219.396 E96.099
G1 X234.131 Y101.586 E96.36
G1 Y102.151 E96.367
G1 X219.726 Y116.556 E96.622
G1 Y117.122 E96.63
G1 X234.131 Y102.717 E96.885
G1 Y103.283 E96.892
G1 X219.726 Y117.688 E97.148
G1 Y118.253 E97.155
G1 X234.131 Y103.848 E97.41
G1 Y104.414 E97.417
G1 X219.726 Y118.819 E97.673
G1 Y119.385 E97.68
G1 X234.131 Y104.98 E97.935
G1 Y105.545 E97.942
G1 X219.726 Y119.95 E98.198
G1 Y120.516 E98.205
G1 X234.131 Y106.111 E98.46
G1 Y106.677 E98.468
G1 X219.726 Y121.082 E98.723
G1 Y121.648 E98.73
G1 X234.131 Y107.243 E98.986
G1 Y107.808 E98.993
G1 X219.726 Y122.213 E99.248
G1 Y122.779 E99.255
G1 X234.131 Y108.374 E99.511
G1 Y108.94 E99.518
G1 X219.726 Y123.345 E99.773
G1 Y123.91 E99.78
G1 X234.131 Y109.505 E100.036
G1 Y110.071 E100.043
G1 X219.726 Y124.476 E100.298
G1 Y125.042 E100.305
G1 X234.131 Y110.637 E100.561
G1 Y111.202 E100.568
G1 X219.726 Y125.607 E100.824
G1 Y126.173 E100.831
G1 X234.131 Y111.768 E101.086
G1 Y112.334 E101.093
G1 X219.726 Y126.739 E101.349
G1 Y127.304 E101.356
G1 X234.131 Y112.899 E101.611
G1 Y113.465 E101.618
G1 X219.726 Y127.87 E101.874
G1 Y128.436 E101.881
G1 X234.131 Y114.031 E102.136
G1 Y114.596 E102.143
G1 X219.726 Y129.001 E102.399
G1 Y129.567 E102.406
G1 X234.131 Y115.162 E102.661
G1 Y115.728 E102.669
G1 X219.726 Y130.133 E102.924
G1 Y130.698 E102.931
G1 X234.131 Y116.293 E103.187
G1 Y116.859 E103.194
G1 X219.726 Y131.264 E103.449
G1 Y131.83 E103.456
G1 X234.131 Y117.425 E103.712
G1 Y117.991 E103.719
G1 X219.726 Y132.396 E103.974
G1 Y132.961 E103.981
G1 X234.131 Y118.556 E104.237
G1 Y119.122 E104.244
G1 X219.726 Y133.527 E104.499
G1 Y134.093 E104.506
G1 X234.131 Y119.688 E104.762
G1 Y120.253 E104.769
G1 X219.726 Y134.658 E105.025
G1 Y135.224 E105.032
G1 X234.131 Y120.819 E105.287
G1 Y121.385 E105.294
G1 X219.726 Y135.79 E105.55
G1 Y136.355 E105.557
G1 X234.131 Y121.95 E105.812
G1 Y122.516 E105.819
G1 X219.726 Y136.921 E106.075
G1 Y137.487 E106.082
G1 X234.131 Y123.082 E106.337
G1 Y123.647 E106.344
G1 X219.726 Y138.052 E106.6
G1 Y138.618 E106.607
G1 X234.131 Y124.213 E106.862
G1 Y124.779 E106.87
G1 X219.726 Y139.184 E107.125
G1 Y139.749 E107.132
G1 X234.131 Y125.344 E107.388
G1 Y125.91 E107.395
G1 X219.726 Y140.315 E107.65
G1 Y140.881 E107.657
G1 X234.131 Y126.476 E107.913
G1 Y127.042 E107.92
G1 X219.726 Y141.447 E108.175
G1 Y142.012 E108.182
G1 X234.131 Y127.607 E108.438
G1 Y128.173 E108.445
G1 X219.726 Y142.578 E108.7
G1 Y143.144 E108.707
G1 X234.131 Y128.739 E108.963
G1 Y129.304 E108.97
G1 X219.726 Y143.709 E109.226
G1 Y144.275 E109.233
G1 X234.131 Y129.87 E109.488
G1 Y130.436 E109.495
G1 X219.726 Y144.841 E109.751
G1 Y145.406 E109.758
G1 X234.131 Y131.001 E110.013
G1 Y131.567 E110.02
G1 X219.726 Y145.972 E110.276
G1 Y146.538 E110.283
G1 X234.131 Y132.133 E110.538
G1 Y132.698 E110.545
G1 X219.726 Y147.103 E110.801
G1 Y147.669 E110.808
G1 X234.131 Y133.264 E111.063
G1 Y133.83 E111.071
G1 X219.726 Y148.235 E111.326
G1 Y148.8 E111.333
G1 X234.131 Y134.395 E111.589
G1 Y134.961 E111.596
G1 X219.726 Y149.366 E111.851
G1 Y149.932 E111.858
G1 X234.131 Y135.527 E112.114
G1 Y136.092 E112.121
G1 X219.726 Y150.497 E112.376
G1 Y151.063 E112.383
G1 X234.131 Y136.658 E112.639
G1 Y137.224 E112.646
G1 X219.726 Y151.629 E112.901
G1 Y152.195 E112.909
G1 X234.131 Y137.79 E113.164
G1 Y138.355 E113.171
G1 X219.726 Y152.76 E113.427
G1 Y153.326 E113.434
G1 X234.131 Y138.921 E113.689
G1 Y139.487 E113.696
G1 X219.726 Y153.892 E113.952
G1 Y154.457 E113.959
G1 X234.131 Y140.052 E114.214
G1 Y140.618 E114.221
G1 X219.726 Y155.023 E114.477
G1 Y155.589 E114.484
G1 X234.131 Y141.184 E114.739
G1 Y141.749 E114.746
G1 X219.726 Y156.154 E115.002
G1 Y156.72 E115.009
G1 X234.131 Y142.315 E115.264
G1 Y142.881 E115.272
G1 X219.726 Y157.286 E115.527
G1 Y157.851 E115.534
G1 X234.131 Y143.446 E115.79
G1 Y144.012 E115.797
G1 X219.726 Y158.417 E116.052
G1 Y158.983 E116.059
G1 X234.131 Y144.578 E116.315
G1 Y145.143 E116.322
G1 X219.726 Y159.548 E116.577
G1 Y160.114 E116.584
G1 X234.131 Y145.709 E116.84
G1 Y146.275 E116.847
G1 X219.726 Y160.68 E117.102
G1 Y161.245 E117.11
G1 X234.131 Y146.84 E117.365
G1 Y147.406 E117.372
G1 X219.726 Y161.811 E117.628
G1 Y162.377 E117.635
G1 X234.131 Y147.972 E117.89
G1 Y148.538 E117.897
G1 X219.726 Y162.943 E118.153
G1 Y163.508 E118.16
G1 X234.131 Y149.103 E118.415
G1 Y149.669 E118.422
G1 X219.726 Y164.074 E118.678
G1 Y164.64 E118.685
G1 X234.131 Y150.235 E118.94
G1 Y150.8 E118.947
G1 X219.726 Y165.205 E119.203
G1 Y165.771 E119.21
G1 X234.131 Y151.366 E119.465
G1 Y151.932 E119.473
G1 X219.726 Y166.337 E119.728
G1 Y166.902 E119.735
G1 X234.131 Y152.497 E119.991
G1 Y153.063 E119.998
G1 X219.726 Y167.468 E120.253
G1 Y168.034 E120.26
G1 X234.131 Y153.629 E120.516
G1 Y154.194 E120.523
G1 X219.726 Y168.599 E120.778
G1 Y169.165 E120.785
G1 X234.131 Y154.76 E121.041
G1 Y155.326 E121.048
G1 X219.726 Y169.731 E121.303
G1 Y170.296 E121.311
G1 X234.131 Y155.891 E121.566
G1 Y156.457 E121.573
G1 X219.726 Y170.862 E121.829
G1 Y171.428 E121.836
G1 X234.131 Y157.023 E122.091
G1 Y157.589 E122.098
G1 X219.726 Y171.993 E122.354
G1 Y172.559 E122.361
G1 X234.131 Y158.154 E122.616
G1 Y158.72 E122.623
G1 X219.726 Y173.125 E122.879
G1 Y173.691 E122.886
G1 X234.131 Y159.286 E123.141
G1 Y159.851 E123.148
G1 X219.726 Y174.256 E123.404
G1 Y174.822 E123.411
G1 X234.131 Y160.417 E123.666
G1 Y160.983 E123.674
G1 X219.726 Y175.388 E123.929
G1 Y175.953 E123.936
G1 X234.131 Y161.548 E124.192
G1 Y162.114 E124.199
G1 X219.726 Y176.519 E124.454
G1 Y177.085 E124.461
G1 X234.131 Y162.68 E124.717
G1 Y163.245 E124.724
G1 X219.726 Y177.65 E124.979
G1 Y178.216 E124.986
G1 X234.131 Y163.811 E125.242
G1 Y164.377 E125.249
G1 X219.726 Y178.782 E125.504
G1 Y179.347 E125.512
G1 X234.131 Y164.942 E125.767
G1 Y165.508 E125.774
G1 X219.726 Y179.913 E126.03
G1 Y180.479 E126.037
G1 X234.131 Y166.074 E126.292
G1 Y166.639 E126.299
G1 X219.726 Y181.044 E126.555
G1 Y181.61 E126.562
G1 X234.131 Y167.205 E126.817
G1 Y167.771 E126.824
G1 X219.726 Y182.176 E127.08
G1 Y182.742 E127.087
G1 X234.131 Y168.337 E127.342
G1 Y168.902 E127.349
G1 X219.726 Y183.307 E127.605
G1 Y183.873 E127.612
G1 X234.131 Y169.468 E127.868
G1 Y170.034 E127.875
G1 X219.726 Y184.439 E128.13
G1 Y185.004 E128.137
G1 X234.131 Y170.599 E128.393
G1 Y171.165 E128.4
G1 X219.726 Y185.57 E128.655
G1 Y186.136 E128.662
G1 X234.131 Y171.731 E128.918
G1 Y172.296 E128.925
G1 X219.726 Y186.701 E129.18
G1 Y187.267 E129.187
G1 X234.131 Y172.862 E129.443
G1 Y173.428 E129.45
G1 X219.726 Y187.833 E129.705
G1 Y188.398 E129.713
G1 X234.131 Y173.993 E129.968
G1 Y174.559 E129.975
G1 X219.726 Y188.964 E130.231
G1 Y189.53 E130.238
G1 X234.131 Y175.125 E130.493
G1 Y175.69 E130.5
G1 X219.726 Y190.095 E130.756
G1 Y190.661 E130.763
G1 X234.131 Y176.256 E131.018
G1 Y176.822 E131.025
G1 X219.726 Y191.227 E131.281
G1 Y191.792 E131.288
G1 X234.131 Y177.387 E131.543
G1 Y177.953 E131.55
G1 X219.726 Y192.358 E131.806
G1 Y192.924 E131.813
G1 X234.131 Y178.519 E132.069
G1 Y179.085 E132.076
G1 X219.726 Y193.49 E132.331
G1 Y194.055 E132.338
G1 X234.131 Y179.65 E132.594
G1 Y180.216 E132.601
G1 X219.726 Y194.621 E132.856
G1 Y195.187 E132.863
G1 X234.131 Y180.782 E133.119
G1 Y181.347 E133.126
G1 X219.726 Y195.752 E133.381
G1 Y196.318 E133.388
G1 X234.131 Y181.913 E133.644
G1 Y182.479 E133.651
G1 X219.726 Y196.884 E133.906
G1 Y197.449 E133.914
G1 X234.131 Y183.044 E134.169
G1 Y183.61 E134.176
G1 X219.726 Y198.015 E134.432
G1 Y198.581 E134.439
G1 X234.131 Y184.176 E134.694
G1 Y184.741 E134.701
G1 X219.726 Y199.146 E134.957
G1 Y199.712 E134.964
G1 X234.131 Y185.307 E135.219
G1 Y185.873 E135.226
G1 X219.726 Y200.278 E135.482
G1 Y200.843 E135.489
G1 X234.131 Y186.438 E135.744
G1 Y187.004 E135.751
G1 X219.726 Y201.409 E136.007
G1 Y201.975 E136.014
G1 X234.131 Y187.57 E136.27
G1 Y188.135 E136.277
G1 X219.726 Y202.54 E136.532
G1 Y203.106 E136.539
G1 X234.131 Y188.701 E136.795
G1 Y189.267 E136.802
G1 X219.726 Y203.672 E137.057
G1 Y204.238 E137.064
G1 X234.131 Y189.833 E137.32
G1 Y190.398 E137.327
G1 X219.726 Y204.803 E137.582
G1 Y205.369 E137.589
G1 X234.131 Y190.964 E137.845
G1 Y191.53 E137.852
G1 X219.726 Y205.935 E138.107
G1 Y206.5 E138.115
G1 X234.131 Y192.095 E138.37
G1 Y192.661 E138.377
G1 X219.726 Y207.066 E138.633
G1 Y207.632 E138.64
G1 X234.131 Y193.227 E138.895
G1 Y193.792 E138.902
G1 X219.726 Y208.197 E139.158
G1 Y208.763 E139.165
G1 X234.131 Y194.358 E139.42
G1 Y194.924 E139.427
G1 X219.726 Y209.329 E139.683
G1 Y209.894 E139.69
G1 X234.131 Y195.489 E139.945
G1 Y196.055 E139.952
G1 X219.726 Y210.46 E140.208
G1 Y211.026 E140.215
G1 X234.131 Y196.621 E140.471
G1 Y197.186 E140.478
G1 X219.726 Y211.591 E140.733
G1 Y212.157 E140.74
G1 X234.131 Y197.752 E140.996
G1 Y198.318 E141.003
G1 X219.726 Y212.723 E141.258
G1 Y212.921 E141.261
G1 X219.528 E141.263
G1 X206.583 Y225.866 E141.493
G1 X207.148 E141.5
G1 X234.131 Y198.884 E141.978
G1 Y199.449 E141.985
G1 X207.714 Y225.866 E142.454
G1 X208.28 E142.461
G1 X234.131 Y200.015 E142.92
G1 Y200.581 E142.927
G1 X208.846 Y225.866 E143.375
G1 X209.411 E143.382
G1 X234.131 Y201.146 E143.821
G1 Y201.712 E143.828
G1 X209.977 Y225.866 E144.256
G1 X210.543 E144.263
G1 X234.131 Y202.278 E144.681
G1 Y202.843 E144.689
G1 X211.108 Y225.866 E145.097
G1 X211.674 E145.104
G1 X234.131 Y203.409 E145.502
G1 Y203.975 E145.509
G1 X212.24 Y225.866 E145.898
G1 X212.805 E145.905
G1 X234.131 Y204.54 E146.283
G1 Y205.106 E146.29
G1 X213.371 Y225.866 E146.658
G1 X213.937 E146.665
G1 X234.131 Y205.672 E147.023
G1 Y206.237 E147.03
G1 X214.502 Y225.866 E147.379
G1 X215.068 E147.386
G1 X234.131 Y206.803 E147.724
G1 Y207.369 E147.731
G1 X215.634 Y225.866 E148.059
G1 X216.199 E148.066
G1 X234.131 Y207.934 E148.384
G1 Y208.5 E148.391
G1 X216.765 Y225.866 E148.699
G1 X217.331 E148.706
G1 X234.131 Y209.066 E149.004
G1 Y209.632 E149.011
G1 X217.896 Y225.866 E149.299
G1 X218.462 E149.306
G1 X234.131 Y210.197 E149.584
G1 Y210.763 E149.591
G1 X219.028 Y225.866 E149.859
G1 X219.594 E149.866
G1 X234.131 Y211.329 E150.124
G1 Y211.894 E150.131
G1 X220.159 Y225.866 E150.379
G1 X220.725 E150.386
G1 X234.131 Y212.46 E150.624
G1 Y213.026 E150.631
G1 X221.291 Y225.866 E150.858
G1 X221.856 E150.866
G1 X234.131 Y213.591 E151.083
G1 Y214.157 E151.09
G1 X222.422 Y225.866 E151.298
G1 X222.988 E151.305
G1 X234.131 Y214.723 E151.503
G1 Y215.288 E151.51
G1 X223.553 Y225.866 E151.697
G1 X224.119 E151.704
G1 X228.364 Y221.621 E151.78
G1 X228.302 Y221.761 E151.782
G1 X228.192 Y222.148 E151.787
G1 X228.157 Y222.393 E151.79
G1 X224.685 Y225.866 E151.851
G1 X225.25 E151.859
G1 X228.14 Y222.976 E151.91
G1 X228.164 Y223.148 E151.912
G1 X228.192 Y223.344 E151.914
G1 X228.224 Y223.458 E151.916
G1 X225.816 Y225.866 E151.959
G1 X226.382 E151.966
G1 X228.368 Y223.88 E152.001
G1 X228.472 Y224.109 E152.004
G1 X228.562 Y224.252 E152.006
G1 X226.947 Y225.866 E152.035
G1 X227.513 E152.042
G1 X228.798 Y224.581 E152.065
G1 X228.937 Y224.748 E152.067
G1 X229.074 Y224.871 E152.07
G1 X228.079 Y225.866 E152.087
G1 X228.645 E152.095
G1 X229.39 Y225.12 E152.108
G1 X229.579 Y225.247 E152.111
G1 X229.748 Y225.329 E152.113
G1 X229.21 Y225.866 E152.122
G1 X229.776 E152.13
G1 X230.152 Y225.49 E152.136
G1 X230.313 Y225.542 E152.138
G1 X230.613 Y225.595 E152.142
G1 X230.342 Y225.866 E152.147
G1 X230.907 E152.154
G1 X231.151 Y225.623 E152.158
G1 X231.512 Y225.584 E152.163
G1 X231.836 Y225.503 E152.167
G1 X231.473 Y225.866 E152.174
G1 X232.039 E152.181
G1 X234.131 Y223.774 E152.218
G1 Y223.208 E152.225
G1 X233.771 Y223.568 E152.231
G1 X233.781 Y223.54 E152.232
G1 X233.864 Y223.148 E152.237
G1 X233.883 Y222.89 E152.24
G1 X234.131 Y222.642 E152.244
G1 Y222.077 E152.251
G1 X233.864 Y222.343 E152.256
G1 X233.781 Y221.953 E152.261
G1 X233.757 Y221.885 E152.262
G1 X234.131 Y221.511 E152.269
G1 Y220.945 E152.276
G1 X233.595 Y221.481 E152.285
G1 X233.455 Y221.219 E152.289
G1 X233.387 Y221.124 E152.29
G1 X234.131 Y220.38 E152.304
G1 Y219.814 E152.311
G1 X233.137 Y220.808 E152.328
G1 X232.939 Y220.604 E152.332
G1 X232.847 Y220.532 E152.333
G1 X234.131 Y219.248 E152.356
G1 Y218.682 E152.363
G1 X232.518 Y220.296 E152.392
G1 X232.275 Y220.155 E152.395
G1 X232.145 Y220.103 E152.397
G1 X234.131 Y218.117 E152.432
G1 Y217.551 E152.439
G1 X231.722 Y219.96 E152.482
G1 X231.581 Y219.926 E152.484
G1 X231.501 Y219.906 E152.485
G1 X231.237 Y219.879 E152.488
G1 X234.131 Y216.985 E152.54
G1 Y216.42 E152.547
G1 X230.663 Y219.888 E152.608
G1 X230.313 Y219.949 E152.613
G1 X229.931 Y220.074 E152.618
G1 X229.891 Y220.094
G1 X234.131 Y215.854 E152.694
G1 F1500 E145.694
G0 X233.565 Y216.42 F2400
G0 X234.131 Y215.854 F2400
;rapid-dry
G0 Y224.339 F7200
G1 F1500 E152.694
;bead-solid_infill
G1 X232.604 Y225.866 F900 E152.721
G1 X233.17 E152.728
G1 X234.131 Y224.905 E152.745
G1 Y225.471 E152.752
G1 X233.736 Y225.866 E152.759
G1 F1500 E145.759
G0 X234.131 Y225.471 F2400
G0 Y225.23 F2400
G0 Y225.471 F2400
G0 X233.736 Y225.866 F2400
;rapid-dry
G0 X206.017 F7200
G1 F1500 E152.759
;bead-solid_infill
G1 X218.962 Y212.921 F900 E152.988
G1 X218.396 E152.996
G1 X205.451 Y225.866 E153.225
G1 X204.886 E153.232
G1 X217.831 Y212.921 E153.462
G1 X217.265 E153.469
G1 X204.32 Y225.866 E153.698
G1 X203.754 E153.706
G1 X216.699 Y212.921 E153.935
G1 X216.134 E153.942
G1 X203.189 Y225.866 E154.172
G1 X202.623 E154.179
G1 X215.568 Y212.921 E154.408
G1 X215.002 E154.416
G1 X202.057 Y225.866 E154.645
G1 X201.492 E154.652
G1 X214.437 Y212.921 E154.882
G1 X213.871 E154.889
G1 X200.926 Y225.866 E155.118
G1 X200.36 E155.126
G1 X213.305 Y212.921 E155.355
G1 X212.74 E155.362
G1 X199.795 Y225.866 E155.592
G1 X199.229 E155.599
G1 X212.174 Y212.921 E155.828
G1 X211.608 E155.836
G1 X198.663 Y225.866 E156.065
G1 X198.098 E156.072
G1 X211.043 Y212.921 E156.302
G1 X210.477 E156.309
G1 X197.532 Y225.866 E156.538
G1 X196.966 E156.546
G1 X209.911 Y212.921 E156.775
G1 X209.345 E156.782
G1 X196.4 Y225.866 E157.012
G1 X195.835 E157.019
G1 X208.78 Y212.921 E157.249
G1 X208.214 E157.256
G1 X195.269 Y225.866 E157.485
G1 X194.703 E157.492
G1 X207.648 Y212.921 E157.722
G1 X207.083 E157.729
G1 X194.138 Y225.866 E157.959
G1 X193.572 E157.966
G1 X206.517 Y212.921 E158.195
G1 X205.951 E158.202
G1 X193.006 Y225.866 E158.432
G1 X192.441 E158.439
G1 X205.386 Y212.921 E158.669
G1 X204.82 E158.676
G1 X191.875 Y225.866 E158.905
G1 X191.309 E158.912
G1 X204.254 Y212.921 E159.142
G1 X203.689 E159.149
G1 X190.744 Y225.866 E159.379
G1 X190.178 E159.386
G1 X203.123 Y212.921 E159.615
G1 X202.557 E159.622
G1 X189.612 Y225.866 E159.852
G1 X189.047 E159.859
G1 X201.992 Y212.921 E160.089
G1 X201.426 E160.096
G1 X188.481 Y225.866 E160.325
G1 X187.915 E160.332
G1 X200.86 Y212.921 E160.562
G1 X200.294 E160.569
G1 X187.349 Y225.866 E160.799
G1 X186.784 E160.806
G1 X199.729 Y212.921 E161.035
G1 X199.163 E161.042
G1 X186.218 Y225.866 E161.272
G1 X185.652 E161.279
G1 X198.597 Y212.921 E161.509
G1 X198.032 E161.516
G1 X185.087 Y225.866 E161.745
G1 X184.521 E161.752
G1 X197.466 Y212.921 E161.982
G1 X196.9 E161.989
G1 X183.955 Y225.866 E162.219
G1 X183.39 E162.226
G1 X196.335 Y212.921 E162.455
G1 X195.769 E162.462
G1 X182.824 Y225.866 E162.692
G1 X182.258 E162.699
G1 X195.203 Y212.921 E162.929
G1 X194.638 E162.936
G1 X181.693 Y225.866 E163.165
G1 X181.127 E163.172
G1 X194.072 Y212.921 E163.402
G1 X193.506 E163.409
G1 X180.561 Y225.866 E163.639
G1 X179.996 E163.646
G1 X192.941 Y212.921 E163.875
G1 X192.375 E163.882
G1 X179.43 Y225.866 E164.112
G1 X178.864 E164.119
G1 X191.809 Y212.921 E164.349
G1 X191.244 E164.356
G1 X178.299 Y225.866 E164.585
G1 X177.733 E164.592
G1 X190.678 Y212.921 E164.822
G1 X190.112 E164.829
G1 X177.167 Y225.866 E165.059
G1 X176.601 E165.066
G1 X189.546 Y212.921 E165.295
G1 X188.981 E165.302
G1 X176.036 Y225.866 E165.532
G1 X175.47 E165.539
G1 X188.415 Y212.921 E165.769
G1 X187.849 E165.776
G1 X175.45 Y225.32 E165.996
G1 Y224.755 E166.003
G1 X187.284 Y212.921 E166.213
G1 X186.718 E166.22
G1 X175.45 Y224.189 E166.42
G1 Y223.623 E166.427
G1 X186.152 Y212.921 E166.616
G1 X185.587 E166.624
G1 X175.45 Y223.058 E166.803
G1 Y222.492 E166.81
G1 X185.021 Y212.921 E166.98
G1 X184.455 E166.987
G1 X175.45 Y221.926 E167.147
G1 Y221.361 E167.154
G1 X183.89 Y212.921 E167.304
G1 X183.324 E167.311
G1 X175.45 Y220.795 E167.45
G1 Y220.229 E167.458
G1 X182.758 Y212.921 E167.587
G1 X182.193 E167.594
G1 X175.45 Y219.664 E167.714
G1 Y219.098 E167.721
G1 X181.627 Y212.921 E167.83
G1 X181.061 E167.838
G1 X175.45 Y218.532 E167.937
G1 Y217.966 E167.944
G1 X180.495 Y212.921 E168.034
G1 X180.239 E168.037
G1 Y212.612 E168.041
G1 X175.45 Y217.401 E168.126
G1 Y216.835 E168.133
G1 X180.239 Y212.046 E168.218
G1 Y211.48 E168.225
G1 X175.45 Y216.269 E168.31
G1 Y215.952 E168.314
G1 X175.202 E168.317
G1 X180.239 Y210.915 E168.406
G1 Y210.349 E168.413
G1 X174.636 Y215.952 E168.513
G1 X174.07 E168.52
G1 X180.239 Y209.783 E168.629
G1 Y209.218 E168.636
G1 X173.505 Y215.952 E168.756
G1 X172.939 E168.763
G1 X180.239 Y208.652 E168.892
G1 Y208.086 E168.899
G1 X172.373 Y215.952 E169.039
G1 X171.808 E169.046
G1 X180.239 Y207.521 E169.195
G1 Y206.955 E169.202
G1 X171.242 Y215.952 E169.362
G1 X170.676 E169.369
G1 X180.239 Y206.389 E169.539
G1 Y205.824 E169.546
G1 X170.111 Y215.952 E169.725
G1 X169.545 E169.733
G1 X180.239 Y205.258 E169.922
G1 Y204.692 E169.929
G1 X168.979 Y215.952 E170.129
G1 X168.414 E170.136
G1 X180.239 Y204.127 E170.346
G1 Y203.561 E170.353
G1 X167.848 Y215.952 E170.573
G1 X167.282 E170.58
G1 X180.239 Y202.995 E170.81
G1 Y202.429 E170.817
G1 X166.716 Y215.952 E171.056
G1 X166.151 E171.064
G1 X180.239 Y201.864 E171.313
G1 Y201.298 E171.32
G1 X165.585 Y215.952 E171.58
G1 X165.019 E171.587
G1 X180.239 Y200.732 E171.857
G1 Y200.167 E171.864
G1 X164.454 Y215.952 E172.144
G1 X163.888 E172.152
G1 X180.239 Y199.601 E172.441
G1 Y199.035 E172.449
G1 X163.322 Y215.952 E172.749
G1 X162.757 E172.756
G1 X180.239 Y198.47 E173.066
G1 Y197.904 E173.073
G1 X162.191 Y215.952 E173.393
G1 X161.625 E173.4
G1 X180.239 Y197.338 E173.73
G1 Y196.773 E173.737
G1 X161.06 Y215.952 E174.077
G1 X160.494 E174.084
G1 X180.239 Y196.207 E174.435
G1 Y195.641 E174.442
G1 X159.928 Y215.952 E174.802
G1 X159.363 E174.809
G1 X180.239 Y195.076 E175.179
G1 Y194.51 E175.186
G1 X158.797 Y215.952 E175.567
G1 X158.231 E175.574
G1 X180.239 Y193.944 E175.964
G1 Y193.379 E175.971
G1 X157.665 Y215.952 E176.371
G1 X157.1 E176.379
G1 X180.239 Y192.813 E176.789
G1 Y192.247 E176.796
G1 X156.534 Y215.952 E177.216
G1 X155.968 E177.223
G1 X180.239 Y191.681 E177.654
G1 Y191.116 E177.661
G1 X155.403 Y215.952 E178.101
G1 X154.837 E178.109
G1 X180.239 Y190.55 E178.559
G1 F1500 E171.559
G0 X179.673 Y191.116 F2400
G0 X180.239 Y190.55 F2400
;rapid-dry
G0 X153.974 Y225.866 F7200
G1 F1500 E178.559
;bead-solid_infill
G1 X154.131 Y225.709 F900 E178.562
G1 Y225.143 E178.569
G1 X153.408 Y225.866 E178.582
G1 X152.843 E178.589
G1 X154.131 Y224.578 E178.612
G1 Y224.012 E178.619
G1 X152.277 Y225.866 E178.652
G1 X151.711 E178.659
G1 X154.131 Y223.446 E178.702
G1 Y222.881 E178.709
G1 X151.146 Y225.866 E178.762
G1 X150.58 E178.769
G1 X154.131 Y222.315 E178.832
G1 Y221.749 E178.839
G1 X150.014 Y225.866 E178.912
G1 X149.449 E178.919
G1 X154.131 Y221.184 E179.002
G1 Y220.618 E179.009
G1 X148.883 Y225.866 E179.102
G1 X148.317 E179.109
G1 X154.131 Y220.052 E179.212
G1 Y219.486 E179.22
G1 X147.751 Y225.866 E179.333
G1 X147.186 E179.34
G1 X154.131 Y218.921 E179.463
G1 Y218.355 E179.47
G1 X146.62 Y225.866 E179.603
G1 X146.054 E179.61
G1 X154.131 Y217.789 E179.754
G1 F1500 E172.754
G0 X153.565 Y218.355 F2400
G0 X154.131 Y217.789 F2400
;rapid-dry
G0 X99.564 Y202.777 F7200
G1 F1500 E179.754
;bead-solid_infill
G1 X100.071 Y202.27 F900 E179.763
G1 Y201.704 E179.77
G1 X98.998 Y202.777 E179.789
G1 X98.433 E179.796
G1 X100.071 Y201.139 E179.825
G1 Y200.573 E179.832
G1 X97.867 Y202.777 E179.871
G1 X97.301 E179.878
G1 X100.071 Y200.007 E179.927
G1 Y199.442 E179.934
G1 X96.736 Y202.777 E179.993
G1 X96.17 E180.001
G1 X100.071 Y198.876 E180.07
G1 Y198.31 E180.077
G1 X95.604 Y202.777 E180.156
G1 X95.039 E180.163
G1 X100.071 Y197.745 E180.252
G1 Y197.179 E180.259
G1 X94.473 Y202.777 E180.359
G1 X93.907 E180.366
G1 X100.071 Y196.613 E180.475
G1 Y196.048 E180.482
G1 X93.342 Y202.777 E180.602
G1 X92.776 E180.609
G1 X100.071 Y195.482 E180.738
G1 Y194.916 E180.745
G1 X92.21 Y202.777 E180.885
G1 X91.644 E180.892
G1 X100.071 Y194.351 E181.041
G1 Y193.785 E181.048
G1 X91.079 Y202.777 E181.208
G1 X90.513 E181.215
G1 X100.071 Y193.219 E181.384
G1 Y192.653 E181.391
G1 X89.947 Y202.777 E181.571
G1 X89.382 E181.578
G1 X100.071 Y192.088 E181.768
G1 Y191.522 E181.775
G1 X88.816 Y202.777 E181.974
G1 X88.25 E181.981
G1 X100.071 Y190.956 E182.191
G1 Y190.391 E182.198
G1 X87.685 Y202.777 E182.418
G1 X87.119 E182.425
G1 X100.071 Y189.825 E182.655
G1 Y189.259 E182.662
G1 X86.553 Y202.777 E182.901
G1 X85.988 E182.908
G1 X100.071 Y188.694 E183.158
G1 Y188.128 E183.165
G1 X85.422 Y202.777 E183.425
G1 X84.856 E183.432
G1 X100.071 Y187.562 E183.702
G1 Y186.997 E183.709
G1 X84.291 Y202.777 E183.989
G1 X83.725 E183.996
G1 X100.071 Y186.431 E184.286
G1 Y185.865 E184.293
G1 X83.159 Y202.777 E184.593
G1 X82.594 E184.6
G1 X100.071 Y185.3 E184.91
G1 Y184.734 E184.917
G1 X82.028 Y202.777 E185.237
G1 X81.462 E185.244
G1 X100.071 Y184.168 E185.574
G1 Y183.602 E185.581
G1 X80.896 Y202.777 E185.921
G1 X80.331 E185.929
G1 X100.071 Y183.037 E186.279
G1 Y182.471 E186.286
G1 X79.765 Y202.777 E186.646
G1 X79.199 E186.653
G1 X100.071 Y181.905 E187.023
G1 Y181.34 E187.03
G1 X78.634 Y202.777 E187.41
G1 X78.068 E187.417
G1 X100.071 Y180.774 E187.808
G1 Y180.208 E187.815
G1 X77.502 Y202.777 E188.215
G1 X76.937 E188.222
G1 X100.071 Y179.643 E188.632
G1 Y179.077 E188.639
G1 X76.371 Y202.777 E189.06
G1 X75.805 E189.067
G1 X100.071 Y178.511 E189.497
G1 Y177.946 E189.504
G1 X75.632 Y202.385 E189.938
G1 Y201.819 E189.945
G1 X100.071 Y177.38 E190.378
G1 Y176.814 E190.385
G1 X75.632 Y201.253 E190.819
G1 Y200.688 E190.826
G1 X100.071 Y176.249 E191.259
G1 Y175.683 E191.266
G1 X75.632 Y200.122 E191.7
G1 Y199.556 E191.707
G1 X100.071 Y175.117 E192.14
G1 Y174.552 E192.147
G1 X75.632 Y198.99 E192.581
G1 Y198.425 E192.588
G1 X100.071 Y173.986 E193.021
G1 Y173.42 E193.028
G1 X75.632 Y197.859 E193.462
G1 Y197.293 E193.469
G1 X100.071 Y172.854 E193.902
G1 Y172.289 E193.909
G1 X75.632 Y196.728 E194.343
G1 Y196.162 E194.35
G1 X100.071 Y171.723 E194.783
G1 Y171.157 E194.79
G1 X75.632 Y195.596 E195.224
G1 Y195.031 E195.231
G1 X100.071 Y170.592 E195.664
G1 Y170.026 E195.671
G1 X75.632 Y194.465 E196.105
G1 Y193.899 E196.112
G1 X100.071 Y169.46 E196.545
G1 Y168.895 E196.553
G1 X75.632 Y193.334 E196.986
G1 Y192.768 E196.993
G1 X100.071 Y168.329 E197.426
G1 Y167.763 E197.434
G1 X75.632 Y192.202 E197.867
G1 Y191.637 E197.874
G1 X100.071 Y167.198 E198.307
G1 Y166.632 E198.315
G1 X75.632 Y191.071 E198.748
G1 Y190.505 E198.755
G1 X100.071 Y166.066 E199.189
G1 Y165.501 E199.196
G1 X75.632 Y189.94 E199.629
G1 Y189.374 E199.636
G1 X100.071 Y164.935 E200.07
G1 Y164.369 E200.077
G1 X75.632 Y188.808 E200.51
G1 Y188.242 E200.517
G1 X100.071 Y163.804 E200.951
G1 Y163.238 E200.958
G1 X75.632 Y187.677 E201.391
G1 Y187.111 E201.398
G1 X100.071 Y162.672 E201.832
G1 Y162.106 E201.839
G1 X75.632 Y186.545 E202.272
G1 Y185.98 E202.279
G1 X100.071 Y161.541 E202.713
G1 Y160.975 E202.72
G1 X75.632 Y185.414 E203.153
G1 Y184.848 E203.16
G1 X100.071 Y160.409 E203.594
G1 Y159.844 E203.601
G1 X75.632 Y184.283 E204.034
G1 Y183.717 E204.041
G1 X100.071 Y159.278 E204.475
G1 Y158.712 E204.482
G1 X75.632 Y183.151 E204.915
G1 Y182.586 E204.922
G1 X100.071 Y158.147 E205.356
G1 Y157.581 E205.363
G1 X75.632 Y182.02 E205.796
G1 Y181.454 E205.803
G1 X100.071 Y157.015 E206.237
G1 Y156.45 E206.244
G1 X75.632 Y180.889 E206.677
G1 Y180.323 E206.684
G1 X100.071 Y155.884 E207.118
G1 Y155.318 E207.125
G1 X75.632 Y179.757 E207.558
G1 Y179.192 E207.565
G1 X100.071 Y154.753 E207.999
G1 Y154.187 E208.006
G1 X75.632 Y178.626 E208.439
G1 Y178.06 E208.446
G1 X100.071 Y153.621 E208.88
G1 Y153.056 E208.887
G1 X75.632 Y177.494 E209.32
G1 Y176.929 E209.327
G1 X100.071 Y152.49 E209.761
G1 Y151.924 E209.768
G1 X75.632 Y176.363 E210.201
G1 Y175.797 E210.208
G1 X100.071 Y151.358 E210.642
G1 Y150.793 E210.649
G1 X75.632 Y175.232 E211.082
G1 Y174.666 E211.089
G1 X100.071 Y150.227 E211.523
G1 Y149.661 E211.53
G1 X75.632 Y174.1 E211.963
G1 Y173.535 E211.97
G1 X100.071 Y149.096 E212.404
G1 F1500 E205.404
G0 X99.505 Y149.661 F2400
G0 X100.071 Y149.096 F2400
;rapid-dry
G0 X60.055 Y93.511 F7200
G1 F1500 E212.404
;bead-solid_infill
G1 X55.891 Y97.675 F900 E212.478
G1 Y97.109 E212.485
G1 X59.309 Y93.691 E212.545
G1 X59.113 Y93.712 E212.548
G1 X58.735 Y93.699 E212.553
G1 X55.891 Y96.544 E212.603
G1 Y95.978 E212.61
G1 X58.259 Y93.61 E212.652
G1 X57.933 Y93.504 E212.657
G1 X57.843 Y93.461 E212.658
G1 X55.891 Y95.412 E212.692
G1 Y94.846 E212.699
G1 X57.474 Y93.263 E212.728
G1 X57.238 Y93.104 E212.731
G1 X57.148 Y93.023 E212.733
G1 X55.891 Y94.281 E212.755
G1 Y93.715 E212.762
G1 X56.862 Y92.744 E212.779
G1 X56.679 Y92.525 E212.783
G1 X56.616 Y92.424 E212.784
G1 X55.891 Y93.149 E212.797
G1 Y92.584 E212.804
G1 X56.412 Y92.062 E212.814
G1 X56.302 Y91.819 E212.817
G1 X56.255 Y91.654 E212.819
G1 X55.891 Y92.018 E212.825
G1 Y91.452 E212.833
G1 X56.158 Y91.186 E212.837
G1 X56.137 Y91.043 E212.839
G1 X56.136 Y90.642 E212.844
G1 X55.891 Y90.887 E212.848
G1 Y90.321 E212.856
G1 X56.277 Y89.935 E212.862
G1 F1500 E205.862
G0 X55.891 Y90.321 F2400
G0 Y90.576 F2400
G0 Y90.321 F2400
G0 X56.277 Y89.935 F2400
;rapid-dry
G0 X56.237 Y87.712 F7200
G1 F1500 E212.862
;bead-solid_infill
G1 X55.891 Y88.058 F900 E212.869
G1 Y88.624 E212.876
G1 X56.803 Y87.712 E212.892
G1 X57.369 E212.899
G1 X55.891 Y89.19 E212.925
G1 Y89.755 E212.932
G1 X57.934 Y87.712 E212.968
G1 X58.5 E212.976
G1 X58.111 Y88.101 E212.982
G1 X58.314 Y88.035 E212.985
G1 X58.7 Y87.967 E212.99
G1 X58.815 Y87.963 E212.991
G1 X59.066 Y87.712 E212.996
G1 X59.631 E213.003
G1 X59.365 Y87.978 E213.008
G1 X59.51 Y87.993 E213.01
G1 X59.835 Y88.074 E213.014
G1 X60.197 Y87.712 E213.02
G1 X60.763 E213.027
G1 X60.245 Y88.229 E213.036
G1 X60.273 Y88.24 E213.037
G1 X60.607 Y88.433 E213.042
G1 X61.328 Y87.712 E213.054
G1 X61.894 E213.062
G1 X60.927 Y88.68 E213.079
G1 X60.939 Y88.69
G1 X61.206 Y88.966 E213.084
G1 X62.46 Y87.712 E213.106
G1 X63.025 E213.113
G1 X61.446 Y89.292 E213.141
G1 X61.455 Y89.305
G1 X61.579 Y89.537 E213.145
G1 X61.644 Y89.659 E213.146
G1 X63.591 Y87.712 E213.181
G1 X64.157 E213.188
G1 X61.79 Y90.079 E213.23
G1 X61.823 Y90.233 E213.232
G1 X61.864 Y90.43 E213.234
G1 X61.874 Y90.561 E213.236
G1 X64.723 Y87.712 E213.287
G1 X65.288 E213.294
G1 X61.872 Y91.128 E213.354
G1 X61.867 Y91.195 E213.355
G1 X61.864 Y91.233 E213.356
G1 X61.784 Y91.616 E213.36
G1 X61.69 Y91.876 E213.364
G1 X65.854 Y87.712 E213.438
G1 X66.42 E213.445
G1 X55.891 Y98.241 E213.632
G1 Y98.806 E213.639
G1 X66.985 Y87.712 E213.835
G1 X67.551 E213.843
G1 X55.891 Y99.372 E214.049
G1 Y99.938 E214.056
G1 X68.117 Y87.712 E214.273
G1 X68.682 E214.28
G1 X55.891 Y100.503 E214.507
G1 Y101.069 E214.514
G1 X69.248 Y87.712 E214.751
G1 X69.814 E214.758
G1 X55.891 Y101.635 E215.005
G1 Y102.2 E215.012
G1 X70.379 Y87.712 E215.269
G1 X70.945 E215.276
G1 X55.891 Y102.766 E215.543
G1 Y103.332 E215.55
G1 X71.511 Y87.712 E215.827
G1 X72.076 E215.834
G1 X55.891 Y103.897 E216.122
G1 Y104.463 E216.129
G1 X72.642 Y87.712 E216.426
G1 X73.208 E216.433
G1 X55.891 Y105.029 E216.74
G1 Y105.594 E216.747
G1 X73.773 Y87.712 E217.064
G1 X74.339 E217.071
G1 X55.891 Y106.16 E217.398
G1 Y106.726 E217.405
G1 X74.905 Y87.712 E217.743
G1 X75.471 E217.75
G1 X55.891 Y107.292 E218.097
G1 Y107.857 E218.104
G1 X76.036 Y87.712 E218.461
G1 X76.602 E218.468
G1 X55.891 Y108.423 E218.836
G1 Y108.989 E218.843
G1 X77.168 Y87.712 E219.22
G1 X77.733 E219.227
G1 X55.891 Y109.554 E219.615
G1 Y110.12 E219.622
G1 X78.299 Y87.712 E220.019
G1 X78.865 E220.026
G1 X55.891 Y110.686 E220.434
G1 Y111.251 E220.441
G1 X79.43 Y87.712 E220.858
G1 X79.996 E220.865
G1 X55.891 Y111.817 E221.293
G1 Y112.383 E221.3
G1 X80.562 Y87.712 E221.737
G1 X81.127 E221.745
G1 X55.891 Y112.948 E222.192
G1 Y113.514 E222.199
G1 X81.693 Y87.712 E222.657
G1 X82.259 E222.664
G1 X55.891 Y114.08 E223.132
G1 Y114.645 E223.139
G1 X82.824 Y87.712 E223.616
G1 X83.39 E223.623
G1 X55.891 Y115.211 E224.111
G1 Y115.777 E224.118
G1 X83.956 Y87.712 E224.616
G1 X84.522 E224.623
G1 X55.891 Y116.342 E225.131
G1 Y116.908 E225.138
G1 X66.131 Y106.668 E225.319
G1 Y106.628 E225.32
G1 X66.171
G1 X85.087 Y87.712 E225.656
G1 X85.653 E225.663
G1 X66.737 Y106.628 E225.998
G1 X67.303 E226.006
G1 X86.219 Y87.712 E226.341
G1 X86.784 E226.348
G1 X67.868 Y106.628 E226.684
G1 X68.434 E226.691
G1 X87.35 Y87.712 E227.026
G1 X87.916 E227.033
G1 X69 Y106.628 E227.369
G1 X69.565 E227.376
G1 X88.481 Y87.712 E227.711
G1 X89.047 E227.718
G1 X70.131 Y106.628 E228.054
G1 X70.697 E228.061
G1 X89.613 Y87.712 E228.396
G1 X90.178 E228.404
G1 X71.262 Y106.628 E228.739
G1 X71.828 E228.746
G1 X90.744 Y87.712 E229.082
G1 X91.31 E229.089
G1 X72.394 Y106.628 E229.424
G1 X72.959 E229.431
G1 X91.875 Y87.712 E229.767
G1 X92.441 E229.774
G1 X73.525 Y106.628 E230.109
G1 X74.091 E230.116
G1 X93.007 Y87.712 E230.452
G1 X93.572 E230.459
G1 X74.656 Y106.628 E230.794
G1 X75.222 E230.801
G1 X94.138 Y87.712 E231.137
G1 X94.704 E231.144
G1 X75.632 Y106.784 E231.482
G1 Y107.35 E231.489
G1 X95.27 Y87.712 E231.838
G1 X95.835 E231.845
G1 X75.632 Y107.915 E232.203
G1 Y108.481 E232.21
G1 X96.401 Y87.712 E232.578
G1 X96.967 E232.586
G1 X75.632 Y109.047 E232.964
G1 Y109.612 E232.971
G1 X97.532 Y87.712 E233.359
G1 X98.098 E233.367
G1 X75.632 Y110.178 E233.765
G1 Y110.744 E233.772
G1 X98.664 Y87.712 E234.18
G1 X99.229 E234.188
G1 X75.632 Y111.309 E234.606
G1 Y111.875 E234.613
G1 X99.795 Y87.712 E235.042
G1 X100.361 E235.049
G1 X75.632 Y112.441 E235.487
G1 Y113.006 E235.494
G1 X100.926 Y87.712 E235.943
G1 X101.492 E235.95
G1 X75.632 Y113.572 E236.409
G1 Y114.138 E236.416
G1 X102.058 Y87.712 E236.884
G1 X102.623 E236.892
G1 X75.632 Y114.703 E237.37
G1 Y115.269 E237.377
G1 X103.189 Y87.712 E237.866
G1 X103.755 E237.873
G1 X75.632 Y115.835 E238.372
G1 Y116.4 E238.379
G1 X104.321 Y87.712 E238.888
G1 X104.886 E238.895
G1 X75.632 Y116.966 E239.414
G1 Y117.532 E239.421
G1 X105.452 Y87.712 E239.95
G1 X106.018 E239.957
G1 X75.632 Y118.098 E240.496
G1 Y118.663 E240.503
G1 X106.583 Y87.712 E241.052
G1 X107.149 E241.059
G1 X75.632 Y119.229 E241.618
G1 Y119.795 E241.625
G1 X107.715 Y87.712 E242.194
G1 X108.28 E242.201
G1 X75.632 Y120.36 E242.78
G1 Y120.926 E242.787
G1 X108.846 Y87.712 E243.376
G1 X109.412 E243.383
G1 X75.632 Y121.492 E243.982
G1 Y122.057 E243.989
G1 X109.977 Y87.712 E244.598
G1 X110.543 E244.605
G1 X75.632 Y122.623 E245.225
G1 Y123.189 E245.232
G1 X111.109 Y87.712 E245.861
G1 X111.674 E245.868
G1 X75.632 Y123.754 E246.507
G1 Y124.32 E246.514
G1 X112.24 Y87.712 E247.163
G1 X112.806 E247.171
G1 X75.632 Y124.886 E247.83
G1 Y125.451 E247.837
G1 X113.371 Y87.712 E248.506
G1 X113.937 E248.513
G1 X75.632 Y126.017 E249.193
G1 Y126.583 E249.2
G1 X114.503 Y87.712 E249.889
G1 X115.069 E249.896
G1 X75.632 Y127.148 E250.596
G1 Y127.714 E250.603
G1 X115.634 Y87.712 E251.312
G1 X116.2 E251.319
G1 X75.632 Y128.28 E252.039
G1 Y128.846 E252.046
G1 X116.766 Y87.712 E252.775
G1 X117.331 E252.782
G1 X75.632 Y129.411 E253.522
G1 Y129.977 E253.529
G1 X117.897 Y87.712 E254.279
G1 X118.463 E254.286
G1 X75.632 Y130.543 E255.045
G1 Y131.108 E255.052
G1 X119.028 Y87.712 E255.822
G1 X119.594 E255.829
G1 X75.632 Y131.674 E256.609
G1 Y132.24 E256.616
G1 X120.16 Y87.712 E257.405
G1 X120.725 E257.413
G1 X75.632 Y132.805 E258.212
G1 Y133.371 E258.219
G1 X121.291 Y87.712 E259.029
G1 X121.857 E259.036
G1 X75.632 Y133.937 E259.856
G1 Y134.502 E259.863
G1 X122.422 Y87.712 E260.693
G1 X122.988 E260.7
G1 X75.632 Y135.068 E261.54
G1 Y135.634 E261.547
G1 X123.554 Y87.712 E262.397
G1 X124.12 E262.404
G1 X75.632 Y136.199 E263.264
G1 Y136.765 E263.271
G1 X124.685 Y87.712 E264.141
G1 X125.251 E264.148
G1 X75.632 Y137.331 E265.028
G1 Y137.897 E265.035
G1 X125.817 Y87.712 E265.925
G1 X126.382 E265.932
G1 X75.632 Y138.462 E266.832
G1 Y139.028 E266.839
G1 X126.948 Y87.712 E267.749
G1 X127.514 E267.757
G1 X75.632 Y139.594 E268.677
G1 Y140.159 E268.684
G1 X128.079 Y87.712 E269.614
G1 X128.645 E269.621
G1 X75.632 Y140.725 E270.561
G1 Y141.291 E270.568
G1 X129.211 Y87.712 E271.518
G1 X129.776 E271.525
G1 X75.632 Y141.856 E272.486
G1 Y142.422 E272.493
G1 X130.342 Y87.712 E273.463
G1 X130.908 E273.47
G1 X75.632 Y142.988 E274.451
G1 Y143.553 E274.458
G1 X131.473 Y87.712 E275.448
G1 X132.039 E275.455
G1 X75.632 Y144.119 E276.455
G1 Y144.685 E276.462
G1 X132.605 Y87.712 E277.473
G1 X133.171 E277.48
G1 X75.632 Y145.25 E278.5
G1 Y145.816 E278.507
G1 X133.736 Y87.712 E279.538
G1 X134.302 E279.545
G1 X75.632 Y146.382 E280.586
G1 Y146.947 E280.593
G1 X134.868 Y87.712 E281.643
G1 X135.433 E281.65
G1 X75.632 Y147.513 E282.711
G1 Y148.079 E282.718
G1 X135.999 Y87.712 E283.789
G1 X136.565 E283.796
G1 X75.632 Y148.645 E284.876
G1 Y149.21 E284.883
G1 X137.13 Y87.712 E285.974
G1 X137.696 E285.981
G1 X75.632 Y149.776 E287.082
G1 Y150.342 E287.089
G1 X138.262 Y87.712 E288.2
G1 X138.827 E288.207
G1 X75.632 Y150.907 E289.327
G1 Y151.473 E289.335
G1 X139.393 Y87.712 E290.465
G1 X139.959 E290.472
G1 X75.632 Y152.039 E291.613
G1 Y152.604 E291.62
G1 X140.524 Y87.712 E292.771
G1 X141.09 E292.778
G1 X75.632 Y153.17 E293.939
G1 Y153.736 E293.946
G1 X141.656 Y87.712 E295.117
G1 X142.221 E295.124
G1 X75.632 Y154.301 E296.305
G1 Y154.867 E296.312
G1 X142.787 Y87.712 E297.503
G1 X143.353 E297.51
G1 X75.632 Y155.433 E298.711
G1 Y155.998 E298.718
G1 X143.919 Y87.712 E299.93
G1 X144.484 E299.937
G1 X75.632 Y156.564 E301.158
G1 Y157.13 E301.165
G1 X145.05 Y87.712 E302.396
G1 X145.616 E302.403
G1 X75.632 Y157.695 E303.644
G1 Y158.261 E303.651
G1 X146.181 Y87.712 E304.902
G1 X146.747 E304.909
G1 X75.632 Y158.827 E306.171
G1 Y159.393 E306.178
G1 X147.313 Y87.712 E307.449
G1 X147.878 E307.456
G1 X75.632 Y159.958 E308.737
G1 Y160.524 E308.744
G1 X148.444 Y87.712 E310.036
G1 X149.01 E310.043
G1 X75.632 Y161.09 E311.344
G1 Y161.655 E311.351
G1 X149.575 Y87.712 E312.663
G1 X150.141 E312.67
G1 X75.632 Y162.221 E313.991
G1 Y162.787 E313.998
G1 X150.707 Y87.712 E315.33
G1 X151.272 E315.337
G1 X75.632 Y163.352 E316.678
G1 Y163.918 E316.685
G1 X151.838 Y87.712 E318.037
G1 X152.404 E318.044
G1 X75.632 Y164.484 E319.405
G1 Y165.049 E319.413
G1 X152.97 Y87.712 E320.784
G1 X153.535 E320.791
G1 X75.632 Y165.615 E322.173
G1 Y166.181 E322.18
G1 X154.101 Y87.712 E323.572
G1 X154.667 E323.579
G1 X75.632 Y166.746 E324.98
G1 Y167.312 E324.987
G1 X155.232 Y87.712 E326.399
G1 X155.798 E326.406
G1 X75.632 Y167.878 E327.828
G1 Y168.444 E327.835
G1 X156.364 Y87.712 E329.267
G1 X156.929 E329.274
G1 X75.632 Y169.009 E330.716
G1 Y169.575 E330.723
G1 X157.495 Y87.712 E332.174
G1 X158.061 E332.182
G1 X75.632 Y170.141 E333.643
G1 Y170.706 E333.651
G1 X158.626 Y87.712 E335.122
G1 X159.192 E335.13
G1 X75.632 Y171.272 E336.611
G1 Y171.838 E336.619
G1 X159.758 Y87.712 E338.111
G1 X160.323 E338.118
G1 X75.632 Y172.403 E339.62
G1 Y172.969 E339.627
G1 X100.071 Y148.53 E340.06
G1 Y148.284 E340.063
G1 X100.317 E340.066
G1 X160.889 Y87.712 E341.14
G1 X161.455 E341.148
G1 X100.883 Y148.284 E342.222
G1 X101.448 E342.229
G1 X162.02 Y87.712 E343.303
G1 X162.586 E343.31
G1 X102.014 Y148.284 E344.384
G1 X102.58 E344.392
G1 X163.152 Y87.712 E345.466
G1 X163.718 E345.473
G1 X103.145 Y148.284 E346.547
G1 X103.711 E346.554
G1 X164.283 Y87.712 E347.628
G1 X164.849 E347.636
G1 X104.277 Y148.284 E348.71
G1 X104.843 E348.717
G1 X165.415 Y87.712 E349.791
G1 X165.98 E349.798
G1 X105.408 Y148.284 E350.872
G1 X105.974 E350.879
G1 X166.546 Y87.712 E351.954
G1 X167.112 E351.961
G1 X106.54 Y148.284 E353.035
G1 X107.105 E353.042
G1 X167.677 Y87.712 E354.116
G1 X168.243 E354.123
G1 X107.671 Y148.284 E355.198
G1 X108.237 E355.205
G1 X168.809 Y87.712 E356.279
G1 X169.374 E356.286
G1 X108.802 Y148.284 E357.36
G1 X109.368 E357.367
G1 X169.94 Y87.712 E358.442
G1 X170.506 E358.449
G1 X109.934 Y148.284 E359.523
G1 X110.499 E359.53
G1 X171.071 Y87.712 E360.604
G1 X171.637 E360.611
G1 X111.065 Y148.284 E361.686
G1 X111.631 E361.693
G1 X172.203 Y87.712 E362.767
G1 X172.769 E362.774
G1 X112.196 Y148.284 E363.848
G1 X112.762 E363.855
G1 X173.334 Y87.712 E364.93
G1 X173.9 E364.937
G1 X113.328 Y148.284 E366.011
G1 X113.893 E366.018
G1 X174.466 Y87.712 E367.092
G1 X175.031 E367.099
G1 X114.459 Y148.284 E368.174
G1 X115.025 E368.181
G1 X175.597 Y87.712 E369.255
G1 X176.163 E369.262
G1 X115.591 Y148.284 E370.336
G1 X116.156 E370.343
G1 X176.728 Y87.712 E371.418
G1 X177.294 E371.425
G1 X116.722 Y148.284 E372.499
G1 X117.288 E372.506
G1 X177.86 Y87.712 E373.58
G1 X178.425 E373.587
G1 X117.853 Y148.284 E374.662
G1 X118.419 E374.669
G1 X178.991 Y87.712 E375.743
G1 X179.557 E375.75
G1 X118.985 Y148.284 E376.824
G1 X119.55 E376.831
G1 X180.122 Y87.712 E377.906
G1 X180.688 E377.913
G1 X120.116 Y148.284 E378.987
G1 X120.682 E378.994
G1 X181.254 Y87.712 E380.068
G1 X181.819 E380.075
G1 X121.247 Y148.284 E381.15
G1 X121.813 E381.157
G1 X182.385 Y87.712 E382.231
G1 X182.951 E382.238
G1 X122.379 Y148.284 E383.312
G1 X122.944 E383.319
G1 X183.517 Y87.712 E384.393
G1 X184.082 E384.401
G1 X123.51 Y148.284 E385.475
G1 X124.076 E385.482
G1 X184.648 Y87.712 E386.556
G1 X185.214 E386.563
G1 X124.642 Y148.284 E387.637
G1 X125.207 E387.645
G1 X185.779 Y87.712 E388.719
G1 X186.345 E388.726
G1 X125.773 Y148.284 E389.8
G1 X126.339 E389.807
G1 X186.911 Y87.712 E390.881
G1 X187.476 E390.889
G1 X126.904 Y148.284 E391.963
G1 X127.47 E391.97
G1 X188.042 Y87.712 E393.044
G1 X188.608 E393.051
G1 X128.036 Y148.284 E394.125
G1 X128.601 E394.132
G1 X189.173 Y87.712 E395.207
G1 X189.739 E395.214
G1 X129.167 Y148.284 E396.288
G1 X129.733 E396.295
G1 X190.305 Y87.712 E397.369
G1 X190.87 E397.376
G1 X130.298 Y148.284 E398.451
G1 X130.864 E398.458
G1 X191.436 Y87.712 E399.532
G1 X192.002 E399.539
G1 X131.43 Y148.284 E400.613
G1 X131.995 E400.62
G1 X192.568 Y87.712 E401.695
G1 X193.133 E401.702
G1 X132.561 Y148.284 E402.776
G1 X133.127 E402.783
G1 X193.699 Y87.712 E403.857
G1 X194.265 E403.864
G1 X133.692 Y148.284 E404.939
G1 X134.258 E404.946
G1 X194.83 Y87.712 E406.02
G1 X195.396 E406.027
G1 X134.824 Y148.284 E407.101
G1 X135.39 E407.108
G1 X195.962 Y87.712 E408.183
G1 X196.527 E408.19
G1 X135.955 Y148.284 E409.264
G1 X136.521 E409.271
G1 X197.093 Y87.712 E410.345
G1 X197.659 E410.352
G1 X137.087 Y148.284 E411.427
G1 X137.652 E411.434
G1 X198.224 Y87.712 E412.508
G1 X198.79 E412.515
G1 X138.218 Y148.284 E413.589
G1 X138.784 E413.596
G1 X199.356 Y87.712 E414.671
G1 X199.921 E414.678
G1 X139.349 Y148.284 E415.752
G1 X139.915 E415.759
G1 X200.487 Y87.712 E416.833
G1 X201.053 E416.84
G1 X140.481 Y148.284 E417.915
G1 X141.046 E417.922
G1 X201.618 Y87.712 E418.996
G1 X202.184 E419.003
G1 X141.612 Y148.284 E420.077
G1 X141.915 E420.081
G1 Y148.547 E420.084
G1 X202.75 Y87.712 E421.163
G1 X203.316 E421.17
G1 X141.915 Y149.112 E422.259
G1 Y149.678 E422.266
G1 X203.881 Y87.712 E423.365
G1 X204.447 E423.372
G1 X141.915 Y150.244 E424.481
G1 Y150.81 E424.488
G1 X205.013 Y87.712 E425.607
G1 X205.578 E425.615
G1 X141.915 Y151.375 E426.744
G1 Y151.941 E426.751
G1 X206.144 Y87.712 E427.89
G1 X206.71 E427.897
G1 X141.915 Y152.507 E429.046
G1 Y153.072 E429.053
G1 X207.275 Y87.712 E430.212
G1 X207.841 E430.219
G1 X141.915 Y153.638 E431.388
G1 Y154.204 E431.396
G1 X208.407 Y87.712 E432.575
G1 X208.972 E432.582
G1 X180.363 Y116.321 E433.089
G1 X180.239 E433.091
G1 Y116.445 E433.092
G1 X141.915 Y154.769 E433.772
G1 Y155.335 E433.779
G1 X180.239 Y117.011 E434.459
G1 Y117.577 E434.466
G1 X141.915 Y155.901 E435.146
G1 Y156.466 E435.153
G1 X180.239 Y118.142 E435.832
G1 Y118.708 E435.839
G1 X141.915 Y157.032 E436.519
G1 Y157.598 E436.526
G1 X180.239 Y119.274 E437.206
G1 Y119.839 E437.213
G1 X141.915 Y158.163 E437.893
G1 Y158.729 E437.9
G1 X180.239 Y120.405 E438.579
G1 Y120.971 E438.586
G1 X141.915 Y159.295 E439.266
G1 Y159.86 E439.273
G1 X180.239 Y121.537 E439.953
G1 Y122.102 E439.96
G1 X141.915 Y160.426 E440.64
G1 Y160.992 E440.647
G1 X180.239 Y122.668 E441.326
G1 Y123.234 E441.333
G1 X141.915 Y161.558 E442.013
G1 Y162.123 E442.02
G1 X180.239 Y123.799 E442.7
G1 Y124.365 E442.707
G1 X141.915 Y162.689 E443.387
G1 Y163.255 E443.394
G1 X180.239 Y124.931 E444.073
G1 Y125.496 E444.081
G1 X141.915 Y163.82 E444.76
G1 Y164.386 E444.767
G1 X180.239 Y126.062 E445.447
G1 Y126.628 E445.454
G1 X141.915 Y164.952 E446.134
G1 Y165.517 E446.141
G1 X180.239 Y127.193 E446.82
G1 Y127.759 E446.828
G1 X141.915 Y166.083 E447.507
G1 Y166.649 E447.514
G1 X180.239 Y128.325 E448.194
G1 Y128.89 E448.201
G1 X141.915 Y167.214 E448.881
G1 Y167.78 E448.888
G1 X180.239 Y129.456 E449.568
G1 Y130.022 E449.575
G1 X141.915 Y168.346 E450.254
G1 Y168.911 E450.261
G1 X180.239 Y130.587 E450.941
G1 Y131.153 E450.948
G1 X141.915 Y169.477 E451.628
G1 Y170.043 E451.635
G1 X180.239 Y131.719 E452.315
G1 Y132.285 E452.322
G1 X141.915 Y170.608 E453.001
G1 Y171.174 E453.008
G1 X180.239 Y132.85 E453.688
G1 Y133.416 E453.695
G1 X141.915 Y171.74 E454.375
G1 Y172.306 E454.382
G1 X180.239 Y133.982 E455.062
G1 Y134.547 E455.069
G1 X141.915 Y172.871 E455.748
G1 Y173.437 E455.755
G1 X180.239 Y135.113 E456.435
G1 Y135.679 E456.442
G1 X141.915 Y174.003 E457.122
G1 Y174.568 E457.129
G1 X180.239 Y136.244 E457.809
G1 Y136.81 E457.816
G1 X141.915 Y175.134 E458.495
G1 Y175.7 E458.503
G1 X180.239 Y137.376 E459.182
G1 Y137.941 E459.189
G1 X141.915 Y176.265 E459.869
G1 Y176.831 E459.876
G1 X180.239 Y138.507 E460.556
G1 Y139.073 E460.563
G1 X141.915 Y177.397 E461.242
G1 Y177.962 E461.25
G1 X180.239 Y139.638 E461.929
G1 Y140.204 E461.936
G1 X141.915 Y178.528 E462.616
G1 Y179.094 E462.623
G1 X180.239 Y140.77 E463.303
G1 Y141.336 E463.31
G1 X141.915 Y179.659 E463.99
G1 Y180.225 E463.997
G1 X180.239 Y141.901 E464.676
G1 Y142.467 E464.683
G1 X141.915 Y180.791 E465.363
G1 Y181.357 E465.37
G1 X180.239 Y143.033 E466.05
G1 Y143.598 E466.057
G1 X141.915 Y181.922 E466.737
G1 Y182.488 E466.744
G1 X180.239 Y144.164 E467.423
G1 Y144.73 E467.43
G1 X141.915 Y183.054 E468.11
G1 Y183.619 E468.117
G1 X180.239 Y145.295 E468.797
G1 Y145.861 E468.804
G1 X141.915 Y184.185 E469.484
G1 Y184.751 E469.491
G1 X180.239 Y146.427 E470.17
G1 Y146.992 E470.177
G1 X141.915 Y185.316 E470.857
G1 Y185.882 E470.864
G1 X180.239 Y147.558 E471.544
G1 Y148.124 E471.551
G1 X141.915 Y186.448 E472.231
G1 Y187.013 E472.238
G1 X180.239 Y148.689 E472.917
G1 Y149.255 E472.924
G1 X141.915 Y187.579 E473.604
G1 Y188.145 E473.611
G1 X180.239 Y149.821 E474.291
G1 Y150.386 E474.298
G1 X141.915 Y188.71 E474.978
G1 Y189.276 E474.985
G1 X180.239 Y150.952 E475.664
G1 Y151.518 E475.672
G1 X141.915 Y189.842 E476.351
G1 Y190.407 E476.358
G1 X180.239 Y152.084 E477.038
G1 Y152.649 E477.045
G1 X141.915 Y190.973 E477.725
G1 Y191.539 E477.732
G1 X180.239 Y153.215 E478.411
G1 Y153.781 E478.419
G1 X141.915 Y192.105 E479.098
G1 Y192.67 E479.105
G1 X180.239 Y154.346 E479.785
G1 Y154.912 E479.792
G1 X141.915 Y193.236 E480.472
G1 Y193.802 E480.479
G1 X180.239 Y155.478 E481.159
G1 Y156.043 E481.166
G1 X141.915 Y194.367 E481.845
G1 Y194.933 E481.852
G1 X180.239 Y156.609 E482.532
G1 Y157.175 E482.539
G1 X141.915 Y195.499 E483.219
G1 Y196.064 E483.226
G1 X180.239 Y157.74 E483.906
G1 Y158.306 E483.913
G1 X141.915 Y196.63 E484.592
G1 Y197.196 E484.599
G1 X180.239 Y158.872 E485.279
G1 Y159.437 E485.286
G1 X141.915 Y197.761 E485.966
G1 Y198.327 E485.973
G1 X180.239 Y160.003 E486.653
G1 Y160.569 E486.66
G1 X141.915 Y198.893 E487.339
G1 Y199.458 E487.346
G1 X180.239 Y161.134 E488.026
G1 Y161.7 E488.033
G1 X141.915 Y200.024 E488.713
G1 Y200.59 E488.72
G1 X180.239 Y162.266 E489.4
G1 Y162.832 E489.407
G1 X141.915 Y201.155 E490.086
G1 Y201.721 E490.094
G1 X180.239 Y163.397 E490.773
G1 Y163.963 E490.78
G1 X141.915 Y202.287 E491.46
G1 Y202.777 E491.466
G1 X141.991 E491.467
G1 X180.239 Y164.529 E492.145
G1 Y165.094 E492.152
G1 X142.556 Y202.777 E492.821
G1 X143.122 E492.828
G1 X180.239 Y165.66 E493.486
G1 Y166.226 E493.493
G1 X143.688 Y202.777 E494.141
G1 X144.253 E494.148
G1 X180.239 Y166.791 E494.787
G1 Y167.357 E494.794
G1 X144.819 Y202.777 E495.422
G1 X145.385 E495.429
G1 X180.239 Y167.923 E496.047
G1 Y168.488 E496.054
G1 X145.95 Y202.777 E496.662
G1 X146.516 E496.669
G1 X180.239 Y169.054 E497.268
G1 Y169.62 E497.275
G1 X147.082 Y202.777 E497.863
G1 X147.647 E497.87
G1 X180.239 Y170.185 E498.448
G1 Y170.751 E498.455
G1 X148.213 Y202.777 E499.023
G1 X148.779 E499.03
G1 X180.239 Y171.317 E499.588
G1 Y171.882 E499.595
G1 X149.344 Y202.777 E500.143
G1 X149.91 E500.15
G1 X180.239 Y172.448 E500.688
G1 Y173.014 E500.695
G1 X150.476 Y202.777 E501.223
G1 X150.561 E501.224
G1 Y203.258 E501.23
G1 X180.239 Y173.58 E501.756
G1 Y174.145 E501.763
G1 X150.561 Y203.823 E502.29
G1 Y204.389 E502.297
G1 X180.239 Y174.711 E502.823
G1 Y175.277 E502.83
G1 X150.561 Y204.955 E503.356
G1 Y205.52 E503.364
G1 X180.239 Y175.842 E503.89
G1 Y176.408 E503.897
G1 X150.561 Y206.086 E504.423
G1 Y206.652 E504.43
G1 X180.239 Y176.974 E504.957
G1 Y177.539 E504.964
G1 X150.561 Y207.217 E505.49
G1 Y207.783 E505.497
G1 X180.239 Y178.105 E506.024
G1 Y178.671 E506.031
G1 X150.561 Y208.349 E506.557
G1 Y208.914 E506.564
G1 X180.239 Y179.236 E507.09
G1 Y179.802 E507.098
G1 X150.561 Y209.48 E507.624
G1 Y210.046 E507.631
G1 X180.239 Y180.368 E508.157
G1 Y180.933 E508.164
G1 X150.561 Y210.611 E508.691
G1 Y211.177 E508.698
G1 X180.239 Y181.499 E509.224
G1 Y182.065 E509.231
G1 X150.561 Y211.743 E509.758
G1 Y212.308 E509.765
G1 X180.239 Y182.631 E510.291
G1 Y183.196 E510.298
G1 X150.561 Y212.874 E510.824
G1 Y213.44 E510.832
G1 X180.239 Y183.762 E511.358
G1 Y184.328 E511.365
G1 X150.561 Y214.006 E511.891
G1 Y214.571 E511.898
G1 X180.239 Y184.893 E512.425
G1 Y185.459 E512.432
G1 X150.561 Y215.137 E512.958
G1 Y215.703 E512.965
G1 X180.239 Y186.025 E513.492
G1 Y186.59 E513.499
G1 X150.561 Y216.268 E514.025
G1 Y216.834 E514.032
G1 X180.239 Y187.156 E514.558
G1 Y187.722 E514.566
G1 X150.561 Y217.4 E515.092
G1 Y217.965 E515.099
G1 X180.239 Y188.287 E515.625
G1 Y188.853 E515.632
G1 X150.561 Y218.531 E516.159
G1 Y219.097 E516.166
G1 X180.239 Y189.419 E516.692
G1 Y189.984 E516.699
G1 X154.271 Y215.952 E517.16
G1 X154.131 E517.161
G1 Y216.092 E517.163
G1 X150.561 Y219.662 E517.227
G1 Y220.228 E517.234
G1 X154.131 Y216.658 E517.297
G1 Y217.224 E517.304
G1 X145.489 Y225.866 E517.457
G1 X144.923 E517.464
G1 X150.008 Y220.781 E517.555
G1 X149.442 E517.562
G1 X144.357 Y225.866 E517.652
G1 X143.792 E517.659
G1 X148.877 Y220.781 E517.749
G1 X148.311 E517.756
G1 X143.226 Y225.866 E517.846
G1 X142.66 E517.854
G1 X147.745 Y220.781 E517.944
G1 X147.18 E517.951
G1 X142.095 Y225.866 E518.041
G1 X141.529 E518.048
G1 X146.614 Y220.781 E518.138
G1 X146.048 E518.145
G1 X140.963 Y225.866 E518.236
G1 X140.398 E518.243
G1 X145.483 Y220.781 E518.333
G1 X144.917 E518.34
G1 X139.832 Y225.866 E518.43
G1 X139.266 E518.437
G1 X144.351 Y220.781 E518.527
G1 X143.786 E518.534
G1 X138.701 Y225.866 E518.625
G1 X138.135 E518.632
G1 X143.22 Y220.781 E518.722
G1 X142.654 E518.729
G1 X137.569 Y225.866 E518.819
G1 X137.003 E518.826
G1 X142.088 Y220.781 E518.917
G1 X141.523 E518.924
G1 X136.438 Y225.866 E519.014
G1 X135.872 E519.021
G1 X140.957 Y220.781 E519.111
G1 X140.391 E519.118
G1 X135.306 Y225.866 E519.208
G1 X134.741 E519.215
G1 X139.826 Y220.781 E519.306
G1 X139.26 E519.313
G1 X134.175 Y225.866 E519.403
G1 X133.609 E519.41
G1 X138.694 Y220.781 E519.5
G1 X138.129 E519.507
G1 X133.044 Y225.866 E519.597
G1 X132.478 E519.604
G1 X137.563 Y220.781 E519.695
G1 X136.997 E519.702
G1 X131.912 Y225.866 E519.792
G1 X131.347 E519.799
G1 X136.432 Y220.781 E519.889
G1 X135.866 E519.896
G1 X130.781 Y225.866 E519.987
G1 X130.215 E519.994
G1 X135.3 Y220.781 E520.084
G1 X134.735 E520.091
G1 X129.65 Y225.866 E520.181
G1 X129.084 E520.188
G1 X134.169 Y220.781 E520.278
G1 X133.603 E520.285
G1 X128.518 Y225.866 E520.376
G1 X127.952 E520.383
G1 X133.037 Y220.781 E520.473
G1 X132.472 E520.48
G1 X127.387 Y225.866 E520.57
G1 X126.821 E520.577
G1 X131.906 Y220.781 E520.667
G1 X131.34 E520.675
G1 X126.255 Y225.866 E520.765
G1 X125.69 E520.772
G1 X130.775 Y220.781 E520.862
G1 X130.209 E520.869
G1 X125.124 Y225.866 E520.959
G1 X124.558 E520.966
G1 X129.643 Y220.781 E521.057
G1 X129.078 E521.064
G1 X123.993 Y225.866 E521.154
G1 X123.427 E521.161
G1 X128.512 Y220.781 E521.251
G1 X127.946 E521.258
G1 X122.861 Y225.866 E521.348
G1 X122.296 E521.355
G1 X127.381 Y220.781 E521.446
G1 X126.815 E521.453
G1 X121.73 Y225.866 E521.543
G1 X121.164 E521.55
G1 X126.249 Y220.781 E521.64
G1 X125.684 E521.647
G1 X120.599 Y225.866 E521.737
G1 X120.033 E521.745
G1 X125.118 Y220.781 E521.835
G1 X124.552 E521.842
G1 X119.467 Y225.866 E521.932
G1 X118.901 E521.939
G1 X123.986 Y220.781 E522.029
G1 X123.421 E522.036
G1 X118.336 Y225.866 E522.127
G1 X117.77 E522.134
G1 X122.855 Y220.781 E522.224
G1 X122.289 E522.231
G1 X117.204 Y225.866 E522.321
G1 X116.639 E522.328
G1 X121.724 Y220.781 E522.418
G1 X121.158 E522.425
G1 X116.073 Y225.866 E522.516
G1 X115.507 E522.523
G1 X120.592 Y220.781 E522.613
G1 X120.027 E522.62
G1 X114.942 Y225.866 E522.71
G1 X114.376 E522.717
G1 X119.461 Y220.781 E522.807
G1 X118.895 E522.815
G1 X113.81 Y225.866 E522.905
G1 X113.245 E522.912
G1 X118.33 Y220.781 E523.002
G1 X117.764 E523.009
G1 X112.679 Y225.866 E523.099
G1 X112.113 E523.106
G1 X117.198 Y220.781 E523.197
G1 X116.633 E523.204
G1 X111.548 Y225.866 E523.294
G1 X110.982 E523.301
G1 X116.067 Y220.781 E523.391
G1 X115.501 E523.398
G1 X110.416 Y225.866 E523.488
G1 X109.851 E523.496
G1 X114.936 Y220.781 E523.586
G1 X114.37 E523.593
G1 X109.285 Y225.866 E523.683
G1 X108.719 E523.69
G1 X113.804 Y220.781 E523.78
G1 X113.238 E523.787
G1 X108.153 Y225.866 E523.878
G1 X107.588 E523.885
G1 X112.673 Y220.781 E523.975
G1 X112.107 E523.982
G1 X107.022 Y225.866 E524.072
G1 X106.456 E524.079
G1 X111.541 Y220.781 E524.169
G1 X110.976 E524.176
G1 X105.891 Y225.866 E524.267
G1 X105.325 E524.274
G1 X110.41 Y220.781 E524.364
G1 X109.844 E524.371
G1 X104.759 Y225.866 E524.461
G1 X104.194 E524.468
G1 X109.279 Y220.781 E524.558
G1 X108.713 E524.566
G1 X103.628 Y225.866 E524.656
G1 X103.062 E524.663
G1 X108.147 Y220.781 E524.753
G1 X107.582 E524.76
G1 X102.497 Y225.866 E524.85
G1 X101.931 E524.857
G1 X107.016 Y220.781 E524.948
G1 X106.45 E524.955
G1 X101.365 Y225.866 E525.045
G1 X100.8 E525.052
G1 X105.885 Y220.781 E525.142
G1 X105.319 E525.149
G1 X100.234 Y225.866 E525.239
G1 X99.668 E525.246
G1 X104.753 Y220.781 E525.337
G1 X104.188 E525.344
G1 X99.102 Y225.866 E525.434
G1 X98.537 E525.441
G1 X103.622 Y220.781 E525.531
G1 X103.056 E525.538
G1 X97.971 Y225.866 E525.628
G1 X97.405 E525.636
G1 X102.49 Y220.781 E525.726
G1 X101.925 E525.733
G1 X96.84 Y225.866 E525.823
G1 X96.274 E525.83
G1 X101.359 Y220.781 E525.92
G1 X100.793 E525.927
G1 X95.708 Y225.866 E526.018
G1 X95.143 E526.025
G1 X100.228 Y220.781 E526.115
G1 X99.662 E526.122
G1 X94.577 Y225.866 E526.212
G1 X94.011 E526.219
G1 X99.096 Y220.781 E526.309
G1 X98.531 E526.317
G1 X93.446 Y225.866 E526.407
G1 X92.88 E526.414
G1 X97.965 Y220.781 E526.504
G1 X97.399 E526.511
G1 X92.314 Y225.866 E526.601
G1 X91.749 E526.608
G1 X96.834 Y220.781 E526.698
G1 X96.268 E526.706
G1 X91.183 Y225.866 E526.796
G1 X90.617 E526.803
G1 X95.702 Y220.781 E526.893
G1 X95.137 E526.9
G1 X90.052 Y225.866 E526.99
G1 X89.486 E526.997
G1 X94.571 Y220.781 E527.088
G1 X94.005 E527.095
G1 X88.92 Y225.866 E527.185
G1 X88.354 E527.192
G1 X93.439 Y220.781 E527.282
G1 X92.874 E527.289
G1 X87.789 Y225.866 E527.379
G1 X87.223 E527.387
G1 X92.308 Y220.781 E527.477
G1 X91.742 E527.484
G1 X86.657 Y225.866 E527.574
G1 X86.092 E527.581
G1 X91.177 Y220.781 E527.671
G1 X90.611 E527.678
G1 X85.526 Y225.866 E527.769
G1 X84.96 E527.776
G1 X90.045 Y220.781 E527.866
G1 X89.48 E527.873
G1 X84.395 Y225.866 E527.963
G1 X83.829 E527.97
G1 X88.914 Y220.781 E528.06
G1 X88.348 E528.067
G1 X83.263 Y225.866 E528.158
G1 X82.698 E528.165
G1 X87.783 Y220.781 E528.255
G1 X87.217 E528.262
G1 X82.132 Y225.866 E528.352
G1 X81.566 E528.359
G1 X86.651 Y220.781 E528.449
G1 X86.086 E528.457
G1 X81.001 Y225.866 E528.547
G1 X80.435 E528.554
G1 X85.52 Y220.781 E528.644
G1 X84.954 E528.651
G1 X79.869 Y225.866 E528.741
G1 X79.303 E528.748
G1 X84.388 Y220.781 E528.839
G1 X83.823 E528.846
G1 X78.738 Y225.866 E528.936
G1 X78.172 E528.943
G1 X83.257 Y220.781 E529.033
G1 X82.691 E529.04
G1 X77.606 Y225.866 E529.13
G1 X77.041 E529.138
G1 X82.126 Y220.781 E529.228
G1 X81.56 E529.235
G1 X76.475 Y225.866 E529.325
G1 X75.909 E529.332
G1 X80.994 Y220.781 E529.422
G1 X80.429 E529.429
G1 X75.344 Y225.866 E529.519
G1 X74.778 E529.527
G1 X79.863 Y220.781 E529.617
G1 X79.297 E529.624
G1 X74.212 Y225.866 E529.714
G1 X73.647 E529.721
G1 X78.732 Y220.781 E529.811
G1 X78.166 E529.818
G1 X73.081 Y225.866 E529.909
G1 X72.515 E529.916
G1 X77.6 Y220.781 E530.006
G1 X77.035 E530.013
G1 X71.95 Y225.866 E530.103
G1 X71.384 E530.11
G1 X76.469 Y220.781 E530.2
G1 X75.903 E530.208
G1 X70.818 Y225.866 E530.298
G1 X70.253 E530.305
G1 X75.338 Y220.781 E530.395
G1 X74.772 E530.402
G1 X69.687 Y225.866 E530.492
G1 X69.121 E530.499
G1 X74.206 Y220.781 E530.59
G1 X73.64 E530.597
G1 X68.555 Y225.866 E530.687
G1 X67.99 E530.694
G1 X73.075 Y220.781 E530.784
G1 X72.509 E530.791
G1 X67.424 Y225.866 E530.881
G1 X66.858 E530.888
G1 X71.943 Y220.781 E530.979
G1 X71.378 E530.986
G1 X66.293 Y225.866 E531.076
G1 X65.727 E531.083
G1 X70.812 Y220.781 E531.173
G1 X70.246 E531.18
G1 X65.161 Y225.866 E531.27
G1 X64.596 E531.278
G1 X69.681 Y220.781 E531.368
G1 X69.115 E531.375
G1 X64.03 Y225.866 E531.465
G1 X63.464 E531.472
G1 X68.549 Y220.781 E531.562
G1 X67.984 E531.569
G1 X62.899 Y225.866 E531.66
G1 X62.333 E531.667
G1 X67.418 Y220.781 E531.757
G1 X66.852 E531.764
G1 X61.767 Y225.866 E531.854
G1 X61.202 E531.861
G1 X66.287 Y220.781 E531.951
G1 X66.131 E531.953
G1 Y220.371 E531.958
G1 X60.636 Y225.866 E532.056
G1 X60.07 E532.063
G1 X66.131 Y219.805 E532.171
G1 Y219.24 E532.178
G1 X61.753 Y223.618 E532.255
G1 X61.781 Y223.54 E532.256
G1 X61.864 Y223.148 E532.261
G1 X61.88 Y222.924 E532.264
G1 X66.131 Y218.674 E532.339
G1 Y218.108 E532.347
G1 X61.866 Y222.373 E532.422
G1 X61.864 Y222.344 E532.423
G1 X61.781 Y221.953 E532.428
G1 X61.765 Y221.908
G1 X66.131 Y217.542 E532.506
G1 Y216.977 E532.513
G1 X61.606 Y221.502 E532.593
G1 X61.587 Y221.467
G1 X61.455 Y221.219 E532.597
G1 X61.4 Y221.142 E532.598
G1 X66.131 Y216.411 E532.682
G1 Y215.845 E532.689
G1 X61.152 Y220.824 E532.777
G1 X60.939 Y220.604 E532.781
G1 X60.865 Y220.546 E532.783
G1 X66.131 Y215.28 E532.876
G1 Y214.714 E532.883
G1 X60.537 Y220.308 E532.982
G1 X60.275 Y220.155 E532.986
G1 X60.167 Y220.112 E532.987
G1 X66.131 Y214.148 E533.093
G1 Y213.583 E533.1
G1 X59.747 Y219.967 E533.214
G1 X59.501 Y219.906 E533.217
G1 X59.266 Y219.882 E533.22
G1 X66.131 Y213.017 E533.341
G1 Y212.451 E533.349
G1 X58.701 Y219.881 E533.48
G1 X58.313 Y219.949 E533.485
G1 X57.948 Y220.069 E533.49
G1 X66.131 Y211.886 E533.635
G1 Y211.32 E533.642
G1 X55.891 Y221.56 E533.824
G1 Y220.994 E533.831
G1 X66.131 Y210.754 E534.013
G1 Y210.189 E534.02
G1 X55.891 Y220.429 E534.201
G1 Y219.863 E534.208
G1 X66.131 Y209.623 E534.39
G1 Y209.057 E534.397
G1 X55.891 Y219.297 E534.579
G1 Y218.731 E534.586
G1 X66.131 Y208.492 E534.767
G1 Y207.926 E534.774
G1 X55.891 Y218.166 E534.956
G1 Y217.6 E534.963
G1 X66.131 Y207.36 E535.145
G1 Y206.794 E535.152
G1 X55.891 Y217.034 E535.333
G1 Y216.469 E535.341
G1 X66.131 Y206.229 E535.522
G1 Y205.663 E535.529
G1 X55.891 Y215.903 E535.711
G1 Y215.337 E535.718
G1 X66.131 Y205.097 E535.9
G1 Y204.532 E535.907
G1 X55.891 Y214.772 E536.088
G1 Y214.206 E536.095
G1 X66.131 Y203.966 E536.277
G1 Y203.4 E536.284
G1 X55.891 Y213.64 E536.466
G1 Y213.075 E536.473
G1 X66.131 Y202.835 E536.654
G1 Y202.269 E536.661
G1 X55.891 Y212.509 E536.843
G1 Y211.943 E536.85
G1 X66.131 Y201.703 E537.032
G1 Y201.138 E537.039
G1 X55.891 Y211.378 E537.22
G1 Y210.812 E537.228
G1 X66.131 Y200.572 E537.409
G1 Y200.006 E537.416
G1 X55.891 Y210.246 E537.598
G1 Y209.681 E537.605
G1 X66.131 Y199.441 E537.786
G1 Y198.875 E537.794
G1 X55.891 Y209.115 E537.975
G1 Y208.549 E537.982
G1 X66.131 Y198.309 E538.164
G1 Y197.743 E538.171
G1 X55.891 Y207.983 E538.353
G1 Y207.418 E538.36
G1 X66.131 Y197.178 E538.541
G1 Y196.612 E538.548
G1 X55.891 Y206.852 E538.73
G1 Y206.286 E538.737
G1 X66.131 Y196.046 E538.919
G1 Y195.481 E538.926
G1 X55.891 Y205.721 E539.107
G1 Y205.155 E539.115
G1 X66.131 Y194.915 E539.296
G1 Y194.349 E539.303
G1 X55.891 Y204.589 E539.485
G1 Y204.024 E539.492
G1 X66.131 Y193.784 E539.674
G1 Y193.218 E539.681
G1 X55.891 Y203.458 E539.862
G1 Y202.892 E539.869
G1 X66.131 Y192.652 E540.051
G1 Y192.087 E540.058
G1 X55.891 Y202.327 E540.24
G1 Y201.761 E540.247
G1 X66.131 Y191.521 E540.428
G1 Y190.955 E540.435
G1 X55.891 Y201.195 E540.617
G1 Y200.63 E540.624
G1 X66.131 Y190.39 E540.806
G1 Y189.824 E540.813
G1 X55.891 Y200.064 E540.994
G1 Y199.498 E541.001
G1 X66.131 Y189.258 E541.183
G1 Y188.693 E541.19
G1 X55.891 Y198.933 E541.372
G1 Y198.367 E541.379
G1 X66.131 Y188.127 E541.56
G1 Y187.561 E541.568
G1 X55.891 Y197.801 E541.749
G1 Y197.235 E541.756
G1 X66.131 Y186.995 E541.938
G1 Y186.43 E541.945
G1 X55.891 Y196.67 E542.127
G1 Y196.104 E542.134
G1 X66.131 Y185.864 E542.315
G1 Y185.298 E542.322
G1 X55.891 Y195.538 E542.504
G1 Y194.973 E542.511
G1 X66.131 Y184.733 E542.693
G1 Y184.167 E542.7
G1 X55.891 Y194.407 E542.881
G1 Y193.841 E542.888
G1 X66.131 Y183.601 E543.07
G1 Y183.036 E543.077
G1 X55.891 Y193.276 E543.259
G1 Y192.71 E543.266
G1 X66.131 Y182.47 E543.447
G1 Y181.904 E543.455
G1 X55.891 Y192.144 E543.636
G1 Y191.579 E543.643
G1 X66.131 Y181.339 E543.825
G1 Y180.773 E543.832
G1 X55.891 Y191.013 E544.014
G1 Y190.447 E544.021
G1 X66.131 Y180.207 E544.202
G1 Y179.642 E544.209
G1 X55.891 Y189.882 E544.391
G1 Y189.316 E544.398
G1 X66.131 Y179.076 E544.58
G1 Y178.51 E544.587
G1 X55.891 Y188.75 E544.768
G1 Y188.184 E544.775
G1 X66.131 Y177.945 E544.957
G1 Y177.379 E544.964
G1 X55.891 Y187.619 E545.146
G1 Y187.053 E545.153
G1 X66.131 Y176.813 E545.334
G1 Y176.247 E545.342
G1 X55.891 Y186.487 E545.523
G1 Y185.922 E545.53
G1 X66.131 Y175.682 E545.712
G1 Y175.116 E545.719
G1 X55.891 Y185.356 E545.901
G1 Y184.79 E545.908
G1 X66.131 Y174.55 E546.089
G1 Y173.985 E546.096
G1 X55.891 Y184.225 E546.278
G1 Y183.659 E546.285
G1 X66.131 Y173.419 E546.467
G1 Y172.853 E546.474
G1 X55.891 Y183.093 E546.655
G1 Y182.528 E546.662
G1 X66.131 Y172.288 E546.844
G1 Y171.722 E546.851
G1 X55.891 Y181.962 E547.033
G1 Y181.396 E547.04
G1 X66.131 Y171.156 E547.221
G1 Y170.591 E547.229
G1 X55.891 Y180.831 E547.41
G1 Y180.265 E547.417
G1 X66.131 Y170.025 E547.599
G1 Y169.459 E547.606
G1 X55.891 Y179.699 E547.788
G1 Y179.134 E547.795
G1 X66.131 Y168.894 E547.976
G1 Y168.328 E547.983
G1 X55.891 Y178.568 E548.165
G1 Y178.002 E548.172
G1 X66.131 Y167.762 E548.354
G1 Y167.196 E548.361
G1 X55.891 Y177.436 E548.542
G1 Y176.871 E548.549
G1 X66.131 Y166.631 E548.731
G1 Y166.065 E548.738
G1 X55.891 Y176.305 E548.92
G1 Y175.739 E548.927
G1 X66.131 Y165.499 E549.108
G1 Y164.934 E549.115
G1 X55.891 Y175.174 E549.297
G1 Y174.608 E549.304
G1 X66.131 Y164.368 E549.486
G1 Y163.802 E549.493
G1 X55.891 Y174.042 E549.674
G1 Y173.477 E549.682
G1 X66.131 Y163.237 E549.863
G1 Y162.671 E549.87
G1 X55.891 Y172.911 E550.052
G1 Y172.345 E550.059
G1 X66.131 Y162.105 E550.241
G1 Y161.54 E550.248
G1 X55.891 Y171.78 E550.429
G1 Y171.214 E550.436
G1 X66.131 Y160.974 E550.618
G1 Y160.408 E550.625
G1 X55.891 Y170.648 E550.807
G1 Y170.083 E550.814
G1 X66.131 Y159.843 E550.995
G1 Y159.277 E551.002
G1 X55.891 Y169.517 E551.184
G1 Y168.951 E551.191
G1 X66.131 Y158.711 E551.373
G1 Y158.146 E551.38
G1 X55.891 Y168.386 E551.561
G1 Y167.82 E551.569
G1 X66.131 Y157.58 E551.75
G1 Y157.014 E551.757
G1 X55.891 Y167.254 E551.939
G1 Y166.688 E551.946
G1 X66.131 Y156.448 E552.128
G1 Y155.883 E552.135
G1 X55.891 Y166.123 E552.316
G1 Y165.557 E552.323
G1 X66.131 Y155.317 E552.505
G1 Y154.751 E552.512
G1 X55.891 Y164.991 E552.694
G1 Y164.426 E552.701
G1 X66.131 Y154.186 E552.882
G1 Y153.62 E552.889
G1 X55.891 Y163.86 E553.071
G1 Y163.294 E553.078
G1 X66.131 Y153.054 E553.26
G1 Y152.489 E553.267
G1 X55.891 Y162.729 E553.448
G1 Y162.163 E553.456
G1 X66.131 Y151.923 E553.637
G1 Y151.357 E553.644
G1 X55.891 Y161.597 E553.826
G1 Y161.032 E553.833
G1 X66.131 Y150.792 E554.015
G1 Y150.226 E554.022
G1 X55.891 Y160.466 E554.203
G1 Y159.9 E554.21
G1 X66.131 Y149.66 E554.392
G1 Y149.095 E554.399
G1 X55.891 Y159.335 E554.581
G1 Y158.769 E554.588
G1 X66.131 Y148.529 E554.769
G1 Y147.963 E554.776
G1 X55.891 Y158.203 E554.958
G1 Y157.637 E554.965
G1 X66.131 Y147.398 E555.147
G1 Y146.832 E555.154
G1 X55.891 Y157.072 E555.335
G1 Y156.506 E555.343
G1 X66.131 Y146.266 E555.524
G1 Y145.7 E555.531
G1 X55.891 Y155.94 E555.713
G1 Y155.375 E555.72
G1 X66.131 Y145.135 E555.901
G1 Y144.569 E555.909
G1 X55.891 Y154.809 E556.09
G1 Y154.243 E556.097
G1 X66.131 Y144.003 E556.279
G1 Y143.438 E556.286
G1 X55.891 Y153.678 E556.468
G1 Y153.112 E556.475
G1 X66.131 Y142.872 E556.656
G1 Y142.306 E556.663
G1 X55.891 Y152.546 E556.845
G1 Y151.981 E556.852
G1 X66.131 Y141.741 E557.034
G1 Y141.175 E557.041
G1 X55.891 Y151.415 E557.222
G1 Y150.849 E557.229
G1 X66.131 Y140.609 E557.411
G1 Y140.044 E557.418
G1 X55.891 Y150.284 E557.6
G1 Y149.718 E557.607
G1 X66.131 Y139.478 E557.789
G1 Y138.912 E557.796
G1 X55.891 Y149.152 E557.977
G1 Y148.587 E557.984
G1 X66.131 Y138.347 E558.166
G1 Y137.781 E558.173
G1 X55.891 Y148.021 E558.355
G1 Y147.455 E558.362
G1 X66.131 Y137.215 E558.543
G1 Y136.649 E558.55
G1 X55.891 Y146.889 E558.732
G1 Y146.324 E558.739
G1 X66.131 Y136.084 E558.921
G1 Y135.518 E558.928
G1 X55.891 Y145.758 E559.109
G1 Y145.192 E559.116
G1 X66.131 Y134.952 E559.298
G1 Y134.387 E559.305
G1 X55.891 Y144.627 E559.487
G1 Y144.061 E559.494
G1 X66.131 Y133.821 E559.675
G1 Y133.255 E559.683
G1 X55.891 Y143.495 E559.864
G1 Y142.93 E559.871
G1 X66.131 Y132.69 E560.053
G1 Y132.124 E560.06
G1 X55.891 Y142.364 E560.242
G1 Y141.798 E560.249
G1 X66.131 Y131.558 E560.43
G1 Y130.993 E560.437
G1 X55.891 Y141.233 E560.619
G1 Y140.667 E560.626
G1 X66.131 Y130.427 E560.808
G1 Y129.861 E560.815
G1 X55.891 Y140.101 E560.996
G1 Y139.536 E561.003
G1 X66.131 Y129.296 E561.185
G1 Y128.73 E561.192
G1 X55.891 Y138.97 E561.374
G1 Y138.404 E561.381
G1 X66.131 Y128.164 E561.562
G1 Y127.599 E561.57
G1 X55.891 Y137.839 E561.751
G1 Y137.273 E561.758
G1 X66.131 Y127.033 E561.94
G1 Y126.467 E561.947
G1 X55.891 Y136.707 E562.129
G1 Y136.141 E562.136
G1 X66.131 Y125.901 E562.317
G1 Y125.336 E562.324
G1 X55.891 Y135.576 E562.506
G1 Y135.01 E562.513
G1 X66.131 Y124.77 E562.695
G1 Y124.204 E562.702
G1 X55.891 Y134.444 E562.883
G1 Y133.879 E562.89
G1 X66.131 Y123.639 E563.072
G1 Y123.073 E563.079
G1 X55.891 Y133.313 E563.261
G1 Y132.747 E563.268
G1 X66.131 Y122.507 E563.449
G1 Y121.942 E563.457
G1 X55.891 Y132.182 E563.638
G1 Y131.616 E563.645
G1 X66.131 Y121.376 E563.827
G1 Y120.81 E563.834
G1 X55.891 Y131.05 E564.016
G1 Y130.485 E564.023
G1 X66.131 Y120.245 E564.204
G1 Y119.679 E564.211
G1 X55.891 Y129.919 E564.393
G1 Y129.353 E564.4
G1 X66.131 Y119.113 E564.582
G1 Y118.548 E564.589
G1 X55.891 Y128.788 E564.77
G1 Y128.222 E564.777
G1 X66.131 Y117.982 E564.959
G1 Y117.416 E564.966
G1 X55.891 Y127.656 E565.148
G1 Y127.09 E565.155
G1 X66.131 Y116.851 E565.336
G1 Y116.285 E565.344
G1 X55.891 Y126.525 E565.525
G1 Y125.959 E565.532
G1 X66.131 Y115.719 E565.714
G1 Y115.153 E565.721
G1 X55.891 Y125.393 E565.902
G1 Y124.828 E565.91
G1 X66.131 Y114.588 E566.091
G1 Y114.022 E566.098
G1 X55.891 Y124.262 E566.28
G1 Y123.696 E566.287
G1 X66.131 Y113.456 E566.469
G1 Y112.891 E566.476
G1 X55.891 Y123.131 E566.657
G1 Y122.565 E566.664
G1 X66.131 Y112.325 E566.846
G1 Y111.759 E566.853
G1 X55.891 Y121.999 E567.035
G1 Y121.434 E567.042
G1 X66.131 Y111.194 E567.223
G1 Y110.628 E567.23
G1 X55.891 Y120.868 E567.412
G1 Y120.302 E567.419
G1 X66.131 Y110.062 E567.601
G1 Y109.497 E567.608
G1 X55.891 Y119.737 E567.789
G1 Y119.171 E567.797
G1 X66.131 Y108.931 E567.978
G1 Y108.365 E567.985
G1 X55.891 Y118.605 E568.167
G1 Y118.04 E568.174
G1 X66.131 Y107.8 E568.356
G1 Y107.234 E568.363
G1 X55.891 Y117.474 E568.544
G1 F1500 E561.544
G0 X56.457 Y116.908 F2400
G0 X55.891 Y117.474 F2400
;rapid-dry
G0 X59.877 Y225.493 F7200
G1 F1500 E568.544
;bead-solid_infill
G1 X59.504 Y225.866 F900 E568.551
G1 X58.939 E568.558
G1 X59.186 Y225.619 E568.562
G1 X59.113 Y225.627 E568.563
G1 X58.709 Y225.612 E568.568
G1 X58.639 Y225.6 E568.569
G1 X58.373 Y225.866 E568.574
G1 X57.807 E568.581
G1 X58.176 Y225.497 E568.588
G1 X58.123 Y225.48
G1 X57.933 Y225.418 E568.591
G1 X57.769 Y225.339 E568.593
G1 X57.242 Y225.866 E568.602
G1 X56.676 E568.609
G1 X57.409 Y225.133 E568.622
G1 X57.238 Y225.018 E568.625
G1 X57.091 Y224.886 E568.628
G1 X56.11 Y225.866 E568.645
G1 X55.891 E568.648
G1 Y225.52 E568.652
G1 X56.812 Y224.598 E568.668
G1 X56.808 Y224.593
G1 X56.68 Y224.44 E568.671
G1 X56.625 Y224.352 E568.672
G1 X56.574 Y224.271 E568.674
G1 X55.891 Y224.954 E568.686
G1 Y224.388 E568.693
G1 X56.378 Y223.901 E568.701
G1 X56.302 Y223.732 E568.704
G1 X56.231 Y223.482 E568.707
G1 X55.891 Y223.823 E568.713
G1 Y223.257 E568.72
G1 X56.144 Y223.004 E568.725
G1 X56.137 Y222.956
G1 X56.136 Y222.546 E568.73
G1 X56.152 Y222.43 E568.732
G1 X55.891 Y222.691 E568.736
G1 Y222.126 E568.743
G1 X56.339 Y221.678 E568.751
G1 F1500 E561.751
G0 X55.891 Y222.126 F2400
G0 Y222.292 F2400
G0 Y222.126 F2400
G0 X56.339 Y221.678 F2400
;Layer : 2 of 33
M106 S255
;rapid-dry
G0 X61.21 Y222.728 Z0.35 F7200
G1 F1500 E568.751
;bead-perimeter_outer
G1 X61.189 Y222.44 F1800 E568.754
G1 X61.126 Y222.14 E568.757
G1 X61.021 Y221.851 E568.76
G1 X60.877 Y221.58 E568.763
G1 X60.696 Y221.331 E568.766
G1 X60.483 Y221.111 E568.769
G1 X60.241 Y220.922 E568.771
G1 X59.976 Y220.768 E568.774
G1 X59.691 Y220.653 E568.777
G1 X59.393 Y220.579 E568.78
G1 X59.088 Y220.547 E568.783
G1 X58.78 Y220.558 E568.786
G1 X58.462 Y220.616 E568.789
G1 X58.187 Y220.706 E568.792
G1 X57.911 Y220.84 E568.795
G1 X57.657 Y221.012 E568.797
G1 X57.428 Y221.218 E568.8
G1 X57.231 Y221.452 E568.803
G1 X57.068 Y221.713 E568.806
G1 X56.937 Y222.01 E568.809
G1 X56.859 Y222.289 E568.812
G1 X56.816 Y222.593 E568.815
G1 X56.818 Y222.917 E568.818
G1 X56.859 Y223.204 E568.821
G1 X56.943 Y223.498 E568.823
G1 X57.068 Y223.779 E568.826
G1 X57.231 Y224.039 E568.829
G1 X57.428 Y224.274 E568.832
G1 X57.657 Y224.48 E568.835
G1 X57.911 Y224.652 E568.838
G1 X58.187 Y224.786 E568.841
G1 X58.478 Y224.88 E568.844
G1 X58.781 Y224.934 E568.846
G1 X59.088 Y224.945 E568.849
G1 X59.393 Y224.912 E568.852
G1 X59.691 Y224.839 E568.855
G1 X59.976 Y224.723 E568.858
G1 X60.241 Y224.57 E568.861
G1 X60.483 Y224.381 E568.864
G1 X60.697 Y224.159 E568.867
G1 X60.885 Y223.897 E568.87
G1 X61.021 Y223.64 E568.872
G1 X61.126 Y223.352 E568.875
G1 X61.19 Y223.051 E568.878
G1 X61.21 Y222.728 E568.881
G1 F1500 E561.881
G0 X61.189 Y222.44 F2400
G0 X61.126 Y222.14 F2400
G0 X61.056 Y221.948 F2400
G0 X61.126 Y222.14 F2400
G0 X61.189 Y222.44 F2400
G0 X61.21 Y222.728 F2400
;rapid-leaky
G0 X61.571 Y222.727 F7200
G1 F1500 E568.881
;bead-perimeter_inner
G1 X61.547 Y222.389 F2400 E568.885
G1 X61.473 Y222.041 E568.888
G1 X61.351 Y221.704 E568.891
G1 X61.183 Y221.389 E568.895
G1 X60.973 Y221.099 E568.898
G1 X60.724 Y220.843 E568.901
G1 X60.444 Y220.623 E568.905
G1 X60.134 Y220.443 E568.908
G1 X59.802 Y220.31 E568.911
G1 X59.456 Y220.223 E568.915
G1 X59.1 Y220.186 E568.918
G1 X58.741 Y220.199 E568.922
G1 X58.373 Y220.266 E568.925
G1 X58.051 Y220.372 E568.928
G1 X57.73 Y220.528 E568.932
G1 X57.434 Y220.728 E568.935
G1 X57.168 Y220.967 E568.938
G1 X56.939 Y221.24 E568.942
G1 X56.749 Y221.545 E568.945
G1 X56.598 Y221.889 E568.949
G1 X56.506 Y222.214 E568.952
G1 X56.456 Y222.569 E568.955
G1 X56.458 Y222.944 E568.959
G1 X56.506 Y223.278 E568.962
G1 X56.603 Y223.622 E568.965
G1 X56.75 Y223.949 E568.969
G1 X56.939 Y224.251 E568.972
G1 X57.168 Y224.525 E568.975
G1 X57.434 Y224.764 E568.979
G1 X57.73 Y224.964 E568.982
G1 X58.052 Y225.121 E568.985
G1 X58.391 Y225.231 E568.989
G1 X58.743 Y225.293 E568.992
G1 X59.101 Y225.306 E568.995
G1 X59.456 Y225.268 E568.999
G1 X59.802 Y225.182 E569.002
G1 X60.134 Y225.047 E569.005
G1 X60.443 Y224.869 E569.009
G1 X60.725 Y224.649 E569.012
G1 X60.974 Y224.39 E569.016
G1 X61.192 Y224.087 E569.019
G1 X61.351 Y223.787 E569.022
G1 X61.473 Y223.451 E569.026
G1 X61.547 Y223.101 E569.029
G1 X61.571 Y222.727 E569.033
G1 F1500 E562.033
G0 X61.547 Y222.389 F2400
G0 X61.473 Y222.041 F2400
G0 X61.437 Y221.942 F2400
G0 X61.473 Y222.041 F2400
G0 X61.547 Y222.389 F2400
G0 X61.571 Y222.727 F2400
;rapid-dry
G0 X149.881 Y220.101 F7200
G1 F1500 E569.033
;bead-perimeter_outer
G1 Y203.457 F1800 E569.189
G1 X141.235 E569.27
G1 Y148.964 E569.783
G1 X100.751 E570.164
G1 Y203.457 E570.676
G1 X74.952 E570.919
G1 Y107.308 E571.823
G1 X66.811 E571.9
G1 Y220.101 E572.961
G1 X149.881 E573.742
G1 F1500 E566.742
G0 Y219.301 F2400
G0 Y220.101 F2400
;rapid-leaky
G0 X150.241 Y220.461 F7200
G1 F1500 E573.742
;bead-perimeter_inner
G1 Y203.097 F2400 E573.905
G1 X141.595 E573.987
G1 Y148.604 E574.499
G1 X100.391 E574.887
G1 Y203.097 E575.399
G1 X75.312 E575.635
G1 Y106.948 E576.539
G1 X66.451 E576.623
G1 Y220.461 E577.69
G1 X150.241 E578.478
G1 F1500 E571.478
G0 Y219.661 F2400
G0 Y220.461 F2400
;rapid-dry
G0 X174.77 Y216.632 F7200
G1 F1500 E578.478
;bead-perimeter_outer
G1 X154.811 F1800 E578.666
G1 Y226.446 E578.758
G1 X174.77 E578.946
G1 Y216.632 E579.038
G1 F1500 E572.038
G0 X173.97 F2400
G0 X174.77 F2400
;rapid-dry
G0 X219.046 Y212.241 F7200
G1 F1500 E579.038
;bead-perimeter_outer
G1 Y117.001 F1800 E579.934
G1 X180.919 E580.293
G1 Y212.241 E581.188
G1 X219.046 E581.547
G1 F1500 E574.547
G0 Y211.441 F2400
G0 Y212.241 F2400
;rapid-leaky
G0 X219.406 Y212.601 F7200
G1 F1500 E581.547
;bead-perimeter_inner
G1 Y116.641 F2400 E582.45
G1 X180.559 E582.815
G1 Y212.601 E583.718
G1 X219.406 E584.083
G1 F1500 E577.083
G0 Y211.801 F2400
G0 Y212.601 F2400
;rapid-dry
G0 X231.976 Y220.768 F7200
G1 F1500 E584.083
;bead-perimeter_outer
G1 X231.691 Y220.653 F1800 E584.086
G1 X231.393 Y220.579 E584.089
G1 X231.088 Y220.547 E584.092
G1 X230.78 Y220.558 E584.094
G1 X230.462 Y220.616 E584.097
G1 X230.187 Y220.706 E584.1
G1 X229.911 Y220.84 E584.103
G1 X229.657 Y221.012 E584.106
G1 X229.428 Y221.218 E584.109
G1 X229.231 Y221.452 E584.112
G1 X229.068 Y221.713 E584.115
G1 X228.937 Y222.01 E584.118
G1 X228.859 Y222.289 E584.12
G1 X228.816 Y222.593 E584.123
G1 X228.818 Y222.917 E584.126
G1 X228.859 Y223.204 E584.129
G1 X228.943 Y223.498 E584.132
G1 X229.068 Y223.779 E584.135
G1 X229.231 Y224.039 E584.138
G1 X229.428 Y224.274 E584.141
G1 X229.657 Y224.48 E584.143
G1 X229.911 Y224.652 E584.146
G1 X230.187 Y224.786 E584.149
G1 X230.478 Y224.88 E584.152
G1 X230.781 Y224.934 E584.155
G1 X231.088 Y224.945 E584.158
G1 X231.393 Y224.912 E584.161
G1 X231.691 Y224.839 E584.164
G1 X231.976 Y224.723 E584.167
G1 X232.241 Y224.57 E584.169
G1 X232.483 Y224.381 E584.172
G1 X232.697 Y224.159 E584.175
G1 X232.885 Y223.897 E584.178
G1 X233.021 Y223.64 E584.181
G1 X233.126 Y223.352 E584.184
G1 X233.19 Y223.051 E584.187
G1 X233.21 Y222.728 E584.19
G1 X233.189 Y222.44 E584.193
G1 X233.126 Y222.14 E584.195
G1 X233.021 Y221.851 E584.198
G1 X232.877 Y221.58 E584.201
G1 X232.697 Y221.331 E584.204
G1 X232.483 Y221.111 E584.207
G1 X232.241 Y220.922 E584.21
G1 X231.976 Y220.768 E584.213
G1 F1500 E577.213
G0 X231.691 Y220.653 F2400
G0 X231.393 Y220.579 F2400
G0 X231.208 Y220.559 F2400
G0 X231.393 Y220.579 F2400
G0 X231.691 Y220.653 F2400
G0 X231.976 Y220.768 F2400
;rapid-leaky
G0 X232.134 Y220.443 F7200
G1 F1500 E584.213
;bead-perimeter_inner
G1 X231.802 Y220.31 F2400 E584.216
G1 X231.456 Y220.223 E584.22
G1 X231.1 Y220.186 E584.223
G1 X230.742 Y220.199 E584.226
G1 X230.373 Y220.266 E584.23
G1 X230.051 Y220.372 E584.233
G1 X229.731 Y220.528 E584.236
G1 X229.434 Y220.728 E584.24
G1 X229.168 Y220.967 E584.243
G1 X228.939 Y221.24 E584.246
G1 X228.749 Y221.545 E584.25
G1 X228.598 Y221.889 E584.253
G1 X228.506 Y222.214 E584.256
G1 X228.456 Y222.569 E584.26
G1 X228.458 Y222.944 E584.263
G1 X228.506 Y223.278 E584.267
G1 X228.603 Y223.622 E584.27
G1 X228.75 Y223.949 E584.273
G1 X228.939 Y224.251 E584.277
G1 X229.168 Y224.525 E584.28
G1 X229.434 Y224.764 E584.283
G1 X229.731 Y224.964 E584.287
G1 X230.052 Y225.121 E584.29
G1 X230.391 Y225.231 E584.293
G1 X230.743 Y225.293 E584.297
G1 X231.101 Y225.306 E584.3
G1 X231.456 Y225.268 E584.304
G1 X231.802 Y225.182 E584.307
G1 X232.134 Y225.047 E584.31
G1 X232.443 Y224.869 E584.314
G1 X232.725 Y224.649 E584.317
G1 X232.974 Y224.39 E584.32
G1 X233.192 Y224.087 E584.324
G1 X233.351 Y223.787 E584.327
G1 X233.473 Y223.451 E584.33
G1 X233.547 Y223.101 E584.334
G1 X233.571 Y222.727 E584.337
G1 X233.547 Y222.389 E584.341
G1 X233.473 Y222.041 E584.344
G1 X233.351 Y221.704 E584.347
G1 X233.183 Y221.389 E584.351
G1 X232.973 Y221.099 E584.354
G1 X232.724 Y220.843 E584.357
G1 X232.444 Y220.623 E584.361
G1 X232.134 Y220.443 E584.364
G1 F1500 E577.364
G0 X231.802 Y220.31 F2400
G0 X231.456 Y220.223 F2400
G0 X231.371 Y220.214 F2400
G0 X231.456 Y220.223 F2400
G0 X231.802 Y220.31 F2400
G0 X232.134 Y220.443 F2400
;rapid-dry
G0 X234.811 Y226.546 F7200
G1 F1500 E584.364
;bead-perimeter_outer
G1 X55.211 F1800 E586.053
G1 Y87.032 E587.365
G1 X234.811 E589.055
G1 Y226.546 E590.367
G1 F1500 E583.367
G0 X234.011 F2400
G0 X234.811 F2400
;rapid-leaky
G0 X234.451 Y226.186 F7200
G1 F1500 E590.367
;bead-perimeter_inner
G1 X175.13 F2400 E590.925
G1 Y216.272 E591.018
G1 X154.451 E591.212
G1 Y226.186 E591.306
G1 X55.571 E592.236
G1 Y87.392 E593.541
G1 X234.451 E595.223
G1 Y226.186 E596.529
G1 F1500 E589.529
G0 X233.651 F2400
G0 X234.451 F2400
;rapid-dry
G0 X231.088 Y93.03 F7200
G1 F1500 E596.529
;bead-perimeter_outer
G1 X231.393 Y92.998 F1800 E596.532
G1 X231.691 Y92.925 E596.535
G1 X231.976 Y92.809 E596.538
G1 X232.241 Y92.656 E596.54
G1 X232.484 Y92.467 E596.543
G1 X232.707 Y92.232 E596.546
G1 X232.877 Y91.997 E596.549
G1 X233.021 Y91.726 E596.552
G1 X233.126 Y91.438 E596.555
G1 X233.189 Y91.138 E596.558
G1 X233.212 Y90.832 E596.561
G1 X233.19 Y90.525 E596.563
G1 X233.126 Y90.225 E596.566
G1 X233.021 Y89.937 E596.569
G1 X232.877 Y89.666 E596.572
G1 X232.697 Y89.417 E596.575
G1 X232.483 Y89.196 E596.578
G1 X232.241 Y89.007 E596.581
G1 X231.975 Y88.853 E596.584
G1 X231.674 Y88.734 E596.587
G1 X231.393 Y88.665 E596.589
G1 X231.088 Y88.633 E596.592
G1 X230.78 Y88.644 E596.595
G1 X230.462 Y88.702 E596.598
G1 X230.187 Y88.791 E596.601
G1 X229.911 Y88.927 E596.604
G1 X229.656 Y89.098 E596.607
G1 X229.416 Y89.316 E596.61
G1 X229.231 Y89.538 E596.613
G1 X229.068 Y89.799 E596.615
G1 X228.937 Y90.096 E596.619
G1 X228.859 Y90.375 E596.621
G1 X228.816 Y90.679 E596.624
G1 X228.818 Y91.002 E596.627
G1 X228.859 Y91.288 E596.63
G1 X228.943 Y91.585 E596.633
G1 X229.068 Y91.864 E596.636
G1 X229.231 Y92.125 E596.639
G1 X229.428 Y92.36 E596.641
G1 X229.657 Y92.566 E596.644
G1 X229.911 Y92.738 E596.647
G1 X230.187 Y92.872 E596.65
G1 X230.478 Y92.966 E596.653
G1 X230.781 Y93.02 E596.656
G1 X231.088 Y93.03 E596.659
G1 F1500 E589.659
G0 X231.393 Y92.998 F2400
G0 X231.691 Y92.925 F2400
G0 X231.864 Y92.855 F2400
G0 X231.691 Y92.925 F2400
G0 X231.393 Y92.998 F2400
G0 X231.088 Y93.03 F2400
;rapid-leaky
G0 X231.101 Y93.391 F7200
G1 F1500 E596.659
;bead-perimeter_inner
G1 X231.455 Y93.354 F2400 E596.662
G1 X231.802 Y93.268 E596.665
G1 X232.134 Y93.133 E596.669
G1 X232.443 Y92.955 E596.672
G1 X232.726 Y92.734 E596.676
G1 X232.985 Y92.463 E596.679
G1 X233.183 Y92.188 E596.682
G1 X233.351 Y91.873 E596.686
G1 X233.473 Y91.537 E596.689
G1 X233.547 Y91.189 E596.692
G1 X233.572 Y90.832 E596.696
G1 X233.547 Y90.474 E596.699
G1 X233.473 Y90.126 E596.702
G1 X233.351 Y89.79 E596.706
G1 X233.183 Y89.475 E596.709
G1 X232.973 Y89.185 E596.713
G1 X232.725 Y88.928 E596.716
G1 X232.443 Y88.708 E596.719
G1 X232.132 Y88.528 E596.723
G1 X231.784 Y88.39 E596.726
G1 X231.455 Y88.309 E596.729
G1 X231.1 Y88.272 E596.733
G1 X230.742 Y88.285 E596.736
G1 X230.374 Y88.352 E596.74
G1 X230.051 Y88.457 E596.743
G1 X229.73 Y88.614 E596.746
G1 X229.433 Y88.814 E596.75
G1 X229.156 Y89.066 E596.753
G1 X228.939 Y89.327 E596.756
G1 X228.749 Y89.631 E596.76
G1 X228.598 Y89.975 E596.763
G1 X228.506 Y90.3 E596.766
G1 X228.456 Y90.655 E596.77
G1 X228.458 Y91.029 E596.773
G1 X228.506 Y91.363 E596.776
G1 X228.603 Y91.708 E596.78
G1 X228.75 Y92.034 E596.783
G1 X228.939 Y92.337 E596.786
G1 X229.168 Y92.611 E596.79
G1 X229.434 Y92.85 E596.793
G1 X229.731 Y93.05 E596.797
G1 X230.052 Y93.207 E596.8
G1 X230.391 Y93.317 E596.803
G1 X230.744 Y93.379 E596.807
G1 X231.101 Y93.391 E596.81
G1 F1500 E589.81
G0 X231.455 Y93.354 F2400
G0 X231.802 Y93.268 F2400
G0 X231.883 Y93.236 F2400
G0 X231.802 Y93.268 F2400
